; generated by PrusaSlicer 2.6.1+win64 on 2023-09-08 at 16:25:39 UTC


;
;

;
;
; 

; external perimeters extrusion width = 0.27mm
; perimeters extrusion width = 0.27mm
; infill extrusion width = 0.27mm
; solid infill extrusion width = 0.27mm
; top infill extrusion width = 0.25mm
; first layer extrusion width = 0.30mm

M73 P0 R3
M201 X2500 Y2500 Z400 E5000 ; sets maximum accelerations, mm/sec^2
M203 X180 Y180 Z12 E80 ; sets maximum feedrates, mm / sec
M204 P2000 R1250 T2500 ; sets acceleration (P, T) and retract acceleration (R), mm/sec^2
M205 X8.00 Y8.00 Z2.00 E10.00 ; sets the jerk limits, mm/sec
M205 S0 T0 ; sets the minimum extruding and travel feed rate, mm/sec
;TYPE:Custom
M862.3 P "MINI" ; printer model check
G90 ; use absolute coordinates
M83 ; extruder relative mode
M104 S170 ; set extruder temp for bed leveling
M140 S90 ; set bed temp
M109 R170 ; wait for bed leveling temp
M190 S90 ; wait for bed temp
M204 T1250 ; set travel acceleration
G28 ; home all without mesh bed level
G29 ; mesh bed leveling 
M204 T2500 ; restore travel acceleration
M104 S240 ; set extruder temp
G92 E0
G1 Y-2 X179 F2400
G1 Z3 F720
M109 S240 ; wait for extruder temp

; intro line
M73 P2 R3
G1 X170 F1000
G1 Z0.2 F720
G1 X110 E8 F600
G1 X40 E10 F400
G92 E0

M221 S95 ; set flow
G21 ; set units to millimeters
G90 ; use absolute coordinates
M83 ; use relative distances for extrusion
M900 K0.2 ; Filament gcode
M107
;LAYER_CHANGE
;Z:0.2
;HEIGHT:0.2
;BEFORE_LAYER_CHANGE
G92 E0.0
;0.2


M73 P5 R3
G1 E-3 F2700
M73 P10 R3
G1 Z.15 F720
G1 Z.2
;AFTER_LAYER_CHANGE
;0.2
G1 Z.35
G1 X79.443 Y87.278 F9000
G1 Z.2 F720
G1 E3 F1500
M204 P600
;TYPE:Skirt/Brim
;WIDTH:0.3
G1 F1200
G1 X81 Y86.847 E.03453
G1 X99 Y86.847 E.38477
G1 X100.493 Y87.24 E.033
G1 X101.597 Y88.318 E.03298
G1 X102.028 Y89.875 E.03453
M73 P11 R3
G1 X102.028 Y90.125 E.00534
G1 X101.635 Y91.618 E.033
G1 X100.557 Y92.722 E.03298
G1 X99 Y93.153 E.03453
G1 X81 Y93.153 E.38477
G1 X79.507 Y92.76 E.033
G1 X78.403 Y91.682 E.03298
G1 X77.972 Y90.125 E.03453
G1 X77.972 Y89.875 E.00534
G1 X78.365 Y88.382 E.033
G1 X79.417 Y87.304 E.0322
M204 P1000
G1 X79.611 Y87.508 F9000
M204 P600
G1 F1200
G1 X79.689 Y87.434 E.0023
G1 X81 Y87.104 E.0289
G1 X99 Y87.104 E.38477
G1 X100.422 Y87.497 E.03154
M73 P12 R3
G1 X101.441 Y88.564 E.03154
G1 X101.771 Y89.875 E.0289
G1 X101.771 Y90.125 E.00534
G1 X101.378 Y91.547 E.03154
G1 X100.311 Y92.566 E.03154
G1 X99 Y92.896 E.0289
G1 X81 Y92.896 E.38477
G1 X79.578 Y92.503 E.03154
G1 X78.559 Y91.436 E.03154
G1 X78.229 Y90.125 E.0289
G1 X78.229 Y89.875 E.00534
G1 X78.622 Y88.453 E.03154
G1 X79.584 Y87.534 E.02844
M204 P1000
G1 X79.768 Y87.743 F9000
M204 P600
G1 F1200
M73 P13 R3
G1 X79.932 Y87.599 E.00467
G1 X81 Y87.361 E.02339
G1 X99 Y87.361 E.38477
G1 X100.348 Y87.753 E.03001
G1 X101.276 Y88.807 E.03002
G1 X101.514 Y90.125 E.02863
G1 X101.122 Y91.473 E.03001
G1 X100.068 Y92.401 E.03002
G1 X99 Y92.639 E.02339
G1 X81 Y92.639 E.38477
G1 X79.652 Y92.247 E.03001
M73 P14 R3
G1 X78.724 Y91.193 E.03002
G1 X78.486 Y90.125 E.02339
G1 X78.486 Y89.875 E.00534
G1 X78.878 Y88.527 E.03001
G1 X79.74 Y87.768 E.02455
M204 P1000
G1 X79.912 Y87.983 F9000
M204 P600
G1 F1200
G1 X80.172 Y87.775 E.00712
G1 X81 Y87.618 E.01801
G1 X99 Y87.618 E.38477
G1 X100.27 Y88.009 E.02841
G1 X101.1 Y89.047 E.02841
G1 X101.257 Y90.125 E.02329
G1 X100.866 Y91.395 E.02841
G1 X99.828 Y92.225 E.02841
G1 X99 Y92.382 E.01801
G1 X81 Y92.382 E.38477
G1 X79.73 Y91.991 E.02841
M73 P15 R3
G1 X78.9 Y90.953 E.02841
G1 X78.743 Y90.125 E.01801
G1 X78.743 Y89.875 E.00534
G1 X79.134 Y88.605 E.02841
G1 X79.883 Y88.006 E.0205
M204 P1000
; printing object Shape-Box id:0 copy 0
G1 E-2.1 F2700
;WIPE_START
G1 F7200
G1 X80.172 Y87.775 E-.1318
G1 X81 Y87.618 E-.30023
G1 X82.314 Y87.618 E-.46797
;WIPE_END
G1 Z.35 F720
G1 X81.125 Y90 F9000
G1 Z.2 F720
G1 E3 F1500
M204 P600
;TYPE:External perimeter
;WIDTH:0.25542
G1 F1200
G1 X98.875 Y90 E.31363
M204 P1000
; stop printing object Shape-Box id:0 copy 0
;LAYER_CHANGE
;Z:0.35
;HEIGHT:0.15
;BEFORE_LAYER_CHANGE
G92 E0.0
;0.35


G1 E-2.1 F2700
;WIPE_START
G1 F7200
G1 X96.349 Y90 E-.9
;WIPE_END
G1 Z.35 F720
;AFTER_LAYER_CHANGE
;0.35
M73 P16 R3
G1 Z.5
G1 X96.349 Y86.847 F9000
G1 Z.35 F720
G1 E3 F1500
;TYPE:Skirt/Brim
;WIDTH:0.3
G1 F2400
G1 X99 Y86.847 E.04428
G1 X100.493 Y87.24 E.02578
G1 X101.597 Y88.318 E.02577
G1 X102.028 Y89.875 E.02698
G1 X102.028 Y90.125 E.00418
G1 X101.635 Y91.618 E.02578
G1 X100.557 Y92.722 E.02577
G1 X99 Y93.153 E.02698
G1 X81 Y93.153 E.30062
G1 X79.507 Y92.76 E.02578
G1 X78.403 Y91.682 E.02577
G1 X77.972 Y90.125 E.02698
G1 X77.972 Y89.875 E.00418
G1 X78.365 Y88.382 E.02578
G1 X79.443 Y87.278 E.02577
G1 X81 Y86.847 E.02698
G1 X96.311 Y86.847 E.25571
G1 X96.311 Y87.104 F9000
G1 F2400
G1 X99 Y87.104 E.04491
G1 X100.422 Y87.497 E.02464
G1 X101.441 Y88.564 E.02464
G1 X101.771 Y89.875 E.02258
G1 X101.771 Y90.125 E.00418
G1 X101.378 Y91.547 E.02464
G1 X100.311 Y92.566 E.02464
G1 X99 Y92.896 E.02258
G1 X81 Y92.896 E.30062
M73 P17 R3
G1 X79.578 Y92.503 E.02464
G1 X78.559 Y91.436 E.02464
G1 X78.229 Y90.125 E.02258
G1 X78.229 Y89.875 E.00418
G1 X78.622 Y88.453 E.02464
G1 X79.689 Y87.434 E.02464
G1 X81 Y87.104 E.02258
G1 X96.274 Y87.104 E.2551
G1 X96.274 Y87.361 F9000
G1 F2400
G1 X99 Y87.361 E.04553
G1 X100.348 Y87.753 E.02345
G1 X101.276 Y88.807 E.02345
G1 X101.514 Y90.125 E.02237
G1 X101.122 Y91.473 E.02345
G1 X100.068 Y92.401 E.02345
G1 X99 Y92.639 E.01827
G1 X81 Y92.639 E.30062
G1 X79.652 Y92.247 E.02345
G1 X78.724 Y91.193 E.02345
G1 X78.486 Y90.125 E.01827
G1 X78.486 Y89.875 E.00418
G1 X78.878 Y88.527 E.02345
G1 X79.932 Y87.599 E.02345
G1 X81 Y87.361 E.01827
G1 X96.236 Y87.361 E.25446
G1 X96.236 Y87.618 F9000
M73 P18 R3
G1 F2400
G1 X99 Y87.618 E.04616
G1 X100.27 Y88.009 E.02219
M73 P18 R2
G1 X101.1 Y89.047 E.0222
G1 X101.257 Y90.125 E.01819
G1 X100.866 Y91.395 E.02219
G1 X99.828 Y92.225 E.0222
G1 X99 Y92.382 E.01408
G1 X81 Y92.382 E.30062
G1 X79.73 Y91.991 E.02219
G1 X78.9 Y90.953 E.0222
G1 X78.743 Y90.125 E.01408
G1 X78.743 Y89.875 E.00418
G1 X79.134 Y88.605 E.02219
G1 X80.172 Y87.775 E.0222
G1 X81 Y87.618 E.01408
G1 X96.199 Y87.618 E.25384
; printing object Shape-Box id:0 copy 0
G1 E-2.1 F2700
;WIPE_START
G1 F7200
G1 X98.725 Y87.618 E-.9
;WIPE_END
G1 Z.5 F720
G1 X98.875 Y90 F9000
G1 Z.35 F720
G1 E3 F1500
M204 P500
;TYPE:External perimeter
;WIDTH:0.25
G1 F1200
M73 P19 R2
G1 X81.125 Y90 E.2411
M204 P1000
; stop printing object Shape-Box id:0 copy 0
;LAYER_CHANGE
;Z:0.5
;HEIGHT:0.15
;BEFORE_LAYER_CHANGE
G92 E0.0
;0.5


G1 E-2.1 F2700
;WIPE_START
G1 F7200
G1 X83.651 Y90 E-.9
;WIPE_END
G1 Z.5 F720
;AFTER_LAYER_CHANGE
;0.5
G1 Z.65
G1 X83.651 Y86.847 F9000
G1 Z.5 F720
G1 E3 F1500
;TYPE:Skirt/Brim
;WIDTH:0.3
G1 F2400
G1 X99 Y86.847 E.25635
G1 X100.493 Y87.24 E.02578
G1 X101.597 Y88.318 E.02577
G1 X102.028 Y89.875 E.02698
G1 X102.028 Y90.125 E.00418
G1 X101.635 Y91.618 E.02578
G1 X100.557 Y92.722 E.02577
G1 X99 Y93.153 E.02698
G1 X81 Y93.153 E.30062
G1 X79.507 Y92.76 E.02578
M73 P20 R2
G1 X78.403 Y91.682 E.02577
G1 X77.972 Y90.125 E.02698
G1 X77.972 Y89.875 E.00418
G1 X78.365 Y88.382 E.02578
G1 X79.443 Y87.278 E.02577
G1 X81 Y86.847 E.02698
G1 X83.614 Y86.847 E.04366
G1 X83.614 Y87.104 F9000
G1 F2400
G1 X99 Y87.104 E.25697
G1 X100.422 Y87.497 E.02464
G1 X101.441 Y88.564 E.02464
G1 X101.771 Y89.875 E.02258
G1 X101.771 Y90.125 E.00418
G1 X101.378 Y91.547 E.02464
G1 X100.311 Y92.566 E.02464
G1 X99 Y92.896 E.02258
G1 X81 Y92.896 E.30062
G1 X79.578 Y92.503 E.02464
G1 X78.559 Y91.436 E.02464
G1 X78.229 Y90.125 E.02258
G1 X78.229 Y89.875 E.00418
G1 X78.622 Y88.453 E.02464
G1 X79.689 Y87.434 E.02464
G1 X81 Y87.104 E.02258
G1 X83.576 Y87.104 E.04302
G1 X83.576 Y87.361 F9000
G1 F2400
G1 X99 Y87.361 E.2576
G1 X100.348 Y87.753 E.02345
M73 P21 R2
G1 X101.276 Y88.807 E.02345
G1 X101.514 Y90.125 E.02237
G1 X101.122 Y91.473 E.02345
G1 X100.068 Y92.401 E.02345
G1 X99 Y92.639 E.01827
G1 X81 Y92.639 E.30062
G1 X79.652 Y92.247 E.02345
G1 X78.724 Y91.193 E.02345
G1 X78.486 Y90.125 E.01827
G1 X78.486 Y89.875 E.00418
G1 X78.878 Y88.527 E.02345
G1 X79.932 Y87.599 E.02345
G1 X81 Y87.361 E.01827
G1 X83.539 Y87.361 E.0424
G1 X83.539 Y87.618 F9000
G1 F2400
G1 X99 Y87.618 E.25822
G1 X100.27 Y88.009 E.02219
G1 X101.1 Y89.047 E.0222
G1 X101.257 Y90.125 E.01819
G1 X100.866 Y91.395 E.02219
G1 X99.828 Y92.225 E.0222
G1 X99 Y92.382 E.01408
G1 X81 Y92.382 E.30062
G1 X79.73 Y91.991 E.02219
M73 P22 R2
G1 X78.9 Y90.953 E.0222
G1 X78.743 Y90.125 E.01408
G1 X78.743 Y89.875 E.00418
G1 X79.134 Y88.605 E.02219
G1 X80.172 Y87.775 E.0222
G1 X81 Y87.618 E.01408
G1 X83.501 Y87.618 E.04177
; printing object Shape-Box id:0 copy 0
G1 E-2.1 F2700
;WIPE_START
G1 F7200
G1 X86.027 Y87.618 E-.9
;WIPE_END
G1 Z.65 F720
G1 X98.875 Y90 F9000
G1 Z.5 F720
G1 E3 F1500
M204 P500
;TYPE:External perimeter
;WIDTH:0.25
G1 F1200
G1 X81.125 Y90 E.2411
M204 P1000
; stop printing object Shape-Box id:0 copy 0
;LAYER_CHANGE
;Z:0.65
;HEIGHT:0.15
;BEFORE_LAYER_CHANGE
G92 E0.0
;0.65


G1 E-2.1 F2700
;WIPE_START
G1 F7200
G1 X83.651 Y90 E-.9
;WIPE_END
G1 Z.65 F720
;AFTER_LAYER_CHANGE
;0.65
; printing object Shape-Box id:0 copy 0
G1 Z.8
M73 P23 R2
G1 X98.875 Y90 F9000
G1 Z.65 F720
G1 E3 F1500
M204 P500
G1 F1200
G1 X81.125 Y90 E.2411
M204 P1000
; stop printing object Shape-Box id:0 copy 0
;LAYER_CHANGE
;Z:0.8
;HEIGHT:0.15
;BEFORE_LAYER_CHANGE
G92 E0.0
;0.8


G1 E-2.1 F2700
;WIPE_START
G1 F7200
G1 X83.651 Y90 E-.9
;WIPE_END
G1 Z.8 F720
;AFTER_LAYER_CHANGE
;0.8
; printing object Shape-Box id:0 copy 0
G1 Z.95
G1 X98.875 Y90 F9000
G1 Z.8 F720
G1 E3 F1500
M204 P500
G1 F1200
G1 X81.125 Y90 E.2411
M204 P1000
; stop printing object Shape-Box id:0 copy 0
;LAYER_CHANGE
;Z:0.95
;HEIGHT:0.15
;BEFORE_LAYER_CHANGE
G92 E0.0
;0.95


G1 E-2.1 F2700
;WIPE_START
M73 P24 R2
G1 F7200
G1 X83.651 Y90 E-.9
;WIPE_END
G1 Z.95 F720
;AFTER_LAYER_CHANGE
;0.95
; printing object Shape-Box id:0 copy 0
G1 Z1.1
G1 X98.875 Y90 F9000
G1 Z.95 F720
G1 E3 F1500
M204 P500
G1 F1200
G1 X81.125 Y90 E.2411
M204 P1000
; stop printing object Shape-Box id:0 copy 0
;LAYER_CHANGE
;Z:1.1
;HEIGHT:0.15
;BEFORE_LAYER_CHANGE
G92 E0.0
;1.1


G1 E-2.1 F2700
;WIPE_START
G1 F7200
G1 X83.651 Y90 E-.9
;WIPE_END
G1 Z1.1 F720
;AFTER_LAYER_CHANGE
;1.1
; printing object Shape-Box id:0 copy 0
G1 Z1.25
G1 X98.875 Y90 F9000
G1 Z1.1 F720
M73 P25 R2
G1 E3 F1500
M204 P500
G1 F1200
G1 X81.125 Y90 E.2411
M204 P1000
; stop printing object Shape-Box id:0 copy 0
;LAYER_CHANGE
;Z:1.25
;HEIGHT:0.15
;BEFORE_LAYER_CHANGE
G92 E0.0
;1.25


G1 E-2.1 F2700
;WIPE_START
G1 F7200
G1 X83.651 Y90 E-.9
;WIPE_END
G1 Z1.25 F720
;AFTER_LAYER_CHANGE
;1.25
; printing object Shape-Box id:0 copy 0
G1 Z1.4
G1 X98.875 Y90 F9000
G1 Z1.25 F720
G1 E3 F1500
M204 P500
G1 F1200
G1 X81.125 Y90 E.2411
M204 P1000
; stop printing object Shape-Box id:0 copy 0
;LAYER_CHANGE
;Z:1.4
;HEIGHT:0.15
;BEFORE_LAYER_CHANGE
G92 E0.0
;1.4


G1 E-2.1 F2700
;WIPE_START
M73 P26 R2
G1 F7200
G1 X83.651 Y90 E-.9
;WIPE_END
G1 Z1.4 F720
;AFTER_LAYER_CHANGE
;1.4
; printing object Shape-Box id:0 copy 0
G1 Z1.55
G1 X98.875 Y90 F9000
G1 Z1.4 F720
G1 E3 F1500
M204 P500
;WIDTH:0.249998
G1 F1200
G1 X81.125 Y90 E.2411
M204 P1000
; stop printing object Shape-Box id:0 copy 0
;LAYER_CHANGE
;Z:1.55
;HEIGHT:0.15
;BEFORE_LAYER_CHANGE
G92 E0.0
;1.55


G1 E-2.1 F2700
;WIPE_START
G1 F7200
G1 X83.651 Y90 E-.9
;WIPE_END
G1 Z1.55 F720
;AFTER_LAYER_CHANGE
;1.55
; printing object Shape-Box id:0 copy 0
G1 Z1.7
G1 X98.875 Y90 F9000
G1 Z1.55 F720
G1 E3 F1500
M204 P500
;WIDTH:0.25
G1 F1200
G1 X81.125 Y90 E.2411
M204 P1000
; stop printing object Shape-Box id:0 copy 0
;LAYER_CHANGE
;Z:1.7
;HEIGHT:0.15
;BEFORE_LAYER_CHANGE
G92 E0.0
;1.7


G1 E-2.1 F2700
;WIPE_START
M73 P27 R2
G1 F7200
G1 X83.651 Y90 E-.9
;WIPE_END
G1 Z1.7 F720
;AFTER_LAYER_CHANGE
;1.7
; printing object Shape-Box id:0 copy 0
G1 Z1.85
G1 X98.875 Y90 F9000
G1 Z1.7 F720
G1 E3 F1500
M204 P500
G1 F1200
G1 X81.125 Y90 E.2411
M204 P1000
; stop printing object Shape-Box id:0 copy 0
;LAYER_CHANGE
;Z:1.85
;HEIGHT:0.15
;BEFORE_LAYER_CHANGE
G92 E0.0
;1.85


G1 E-2.1 F2700
;WIPE_START
M73 P28 R2
G1 F7200
G1 X83.651 Y90 E-.9
;WIPE_END
G1 Z1.85 F720
;AFTER_LAYER_CHANGE
;1.85
; printing object Shape-Box id:0 copy 0
G1 Z2
G1 X98.875 Y90 F9000
G1 Z1.85 F720
G1 E3 F1500
M204 P500
G1 F1200
G1 X81.125 Y90 E.2411
M204 P1000
; stop printing object Shape-Box id:0 copy 0
;LAYER_CHANGE
;Z:2
;HEIGHT:0.15
;BEFORE_LAYER_CHANGE
G92 E0.0
;2


G1 E-2.1 F2700
;WIPE_START
G1 F7200
G1 X83.651 Y90 E-.9
;WIPE_END
G1 Z2 F720
;AFTER_LAYER_CHANGE
;2
; printing object Shape-Box id:0 copy 0
G1 Z2.15
G1 X98.875 Y90 F9000
G1 Z2 F720
G1 E3 F1500
M204 P500
G1 F1200
G1 X81.125 Y90 E.2411
M204 P1000
; stop printing object Shape-Box id:0 copy 0
;LAYER_CHANGE
;Z:2.15
;HEIGHT:0.15
;BEFORE_LAYER_CHANGE
G92 E0.0
;2.15


G1 E-2.1 F2700
;WIPE_START
M73 P29 R2
G1 F7200
G1 X83.651 Y90 E-.9
;WIPE_END
G1 Z2.15 F720
;AFTER_LAYER_CHANGE
;2.15
; printing object Shape-Box id:0 copy 0
G1 Z2.3
G1 X98.875 Y90 F9000
G1 Z2.15 F720
G1 E3 F1500
M204 P500
G1 F1200
G1 X81.125 Y90 E.2411
M204 P1000
; stop printing object Shape-Box id:0 copy 0
;LAYER_CHANGE
;Z:2.3
;HEIGHT:0.15
;BEFORE_LAYER_CHANGE
G92 E0.0
;2.3


G1 E-2.1 F2700
;WIPE_START
G1 F7200
M73 P30 R2
G1 X83.651 Y90 E-.9
;WIPE_END
G1 Z2.3 F720
;AFTER_LAYER_CHANGE
;2.3
; printing object Shape-Box id:0 copy 0
G1 Z2.45
G1 X98.875 Y90 F9000
G1 Z2.3 F720
G1 E3 F1500
M204 P500
G1 F1200
G1 X81.125 Y90 E.2411
M204 P1000
; stop printing object Shape-Box id:0 copy 0
;LAYER_CHANGE
;Z:2.45
;HEIGHT:0.15
;BEFORE_LAYER_CHANGE
G92 E0.0
;2.45


G1 E-2.1 F2700
;WIPE_START
G1 F7200
G1 X83.651 Y90 E-.9
;WIPE_END
G1 Z2.45 F720
;AFTER_LAYER_CHANGE
;2.45
; printing object Shape-Box id:0 copy 0
G1 Z2.6
G1 X98.875 Y90 F9000
G1 Z2.45 F720
G1 E3 F1500
M204 P500
G1 F1200
G1 X81.125 Y90 E.2411
M204 P1000
; stop printing object Shape-Box id:0 copy 0
;LAYER_CHANGE
;Z:2.6
;HEIGHT:0.15
;BEFORE_LAYER_CHANGE
G92 E0.0
;2.6


G1 E-2.1 F2700
;WIPE_START
M73 P31 R2
G1 F7200
G1 X83.651 Y90 E-.9
;WIPE_END
G1 Z2.6 F720
;AFTER_LAYER_CHANGE
;2.6
; printing object Shape-Box id:0 copy 0
G1 Z2.75
G1 X98.875 Y90 F9000
G1 Z2.6 F720
G1 E3 F1500
M204 P500
G1 F1200
G1 X81.125 Y90 E.2411
M204 P1000
; stop printing object Shape-Box id:0 copy 0
;LAYER_CHANGE
;Z:2.75
;HEIGHT:0.15
;BEFORE_LAYER_CHANGE
G92 E0.0
;2.75


G1 E-2.1 F2700
;WIPE_START
G1 F7200
G1 X83.651 Y90 E-.9
;WIPE_END
G1 Z2.75 F720
;AFTER_LAYER_CHANGE
;2.75
; printing object Shape-Box id:0 copy 0
G1 Z2.9
G1 X98.875 Y90 F9000
G1 Z2.75 F720
M73 P32 R2
G1 E3 F1500
M204 P500
G1 F1200
G1 X81.125 Y90 E.2411
M204 P1000
; stop printing object Shape-Box id:0 copy 0
;LAYER_CHANGE
;Z:2.9
;HEIGHT:0.15
;BEFORE_LAYER_CHANGE
G92 E0.0
;2.9


G1 E-2.1 F2700
;WIPE_START
G1 F7200
G1 X83.651 Y90 E-.9
;WIPE_END
G1 Z2.9 F720
;AFTER_LAYER_CHANGE
;2.9
; printing object Shape-Box id:0 copy 0
G1 Z3.05
G1 X98.875 Y90 F9000
G1 Z2.9 F720
G1 E3 F1500
M204 P500
G1 F1200
G1 X81.125 Y90 E.2411
M204 P1000
; stop printing object Shape-Box id:0 copy 0
;LAYER_CHANGE
;Z:3.05
;HEIGHT:0.15
;BEFORE_LAYER_CHANGE
G92 E0.0
;3.05


G1 E-2.1 F2700
;WIPE_START
M73 P33 R2
G1 F7200
G1 X83.651 Y90 E-.9
;WIPE_END
G1 Z3.05 F720
;AFTER_LAYER_CHANGE
;3.05
; printing object Shape-Box id:0 copy 0
G1 Z3.2
G1 X98.875 Y90 F9000
G1 Z3.05 F720
G1 E3 F1500
M204 P500
G1 F1200
G1 X81.125 Y90 E.2411
M204 P1000
; stop printing object Shape-Box id:0 copy 0
;LAYER_CHANGE
;Z:3.2
;HEIGHT:0.15
;BEFORE_LAYER_CHANGE
G92 E0.0
;3.2


G1 E-2.1 F2700
;WIPE_START
G1 F7200
G1 X83.651 Y90 E-.9
;WIPE_END
G1 Z3.2 F720
;AFTER_LAYER_CHANGE
;3.2
; printing object Shape-Box id:0 copy 0
G1 Z3.35
G1 X98.875 Y90 F9000
G1 Z3.2 F720
G1 E3 F1500
M204 P500
G1 F1200
M73 P34 R2
G1 X81.125 Y90 E.2411
M204 P1000
; stop printing object Shape-Box id:0 copy 0
;LAYER_CHANGE
;Z:3.35
;HEIGHT:0.15
;BEFORE_LAYER_CHANGE
G92 E0.0
;3.35


G1 E-2.1 F2700
;WIPE_START
G1 F7200
G1 X83.651 Y90 E-.9
;WIPE_END
G1 Z3.35 F720
;AFTER_LAYER_CHANGE
;3.35
; printing object Shape-Box id:0 copy 0
G1 Z3.5
G1 X98.875 Y90 F9000
G1 Z3.35 F720
G1 E3 F1500
M204 P500
G1 F1200
G1 X81.125 Y90 E.2411
M204 P1000
; stop printing object Shape-Box id:0 copy 0
