; generated by PrusaSlicer 2.6.0+win64 on 2023-09-03 at 20:24:39 UTC


;
;

;
;
; 

; external perimeters extrusion width = 0.27mm
; perimeters extrusion width = 0.27mm
; infill extrusion width = 0.27mm
; solid infill extrusion width = 0.27mm
; top infill extrusion width = 0.25mm
; first layer extrusion width = 0.30mm

M73 P0 R11
M201 X2500 Y2500 Z400 E5000 ; sets maximum accelerations, mm/sec^2
M203 X180 Y180 Z12 E80 ; sets maximum feedrates, mm / sec
M204 P2000 R1250 T2500 ; sets acceleration (P, T) and retract acceleration (R), mm/sec^2
M205 X8.00 Y8.00 Z2.00 E10.00 ; sets the jerk limits, mm/sec
M205 S0 T0 ; sets the minimum extruding and travel feed rate, mm/sec
;TYPE:Custom
M862.3 P "MINI" ; printer model check
G90 ; use absolute coordinates
M83 ; extruder relative mode
M104 S170 ; set extruder temp for bed leveling
M140 S90 ; set bed temp
M109 R170 ; wait for bed leveling temp
M190 S90 ; wait for bed temp
M204 T1250 ; set travel acceleration
G28 ; home all without mesh bed level
G29 ; mesh bed leveling 
M204 T2500 ; restore travel acceleration
M104 S240 ; set extruder temp
G92 E0
G1 Y-2 X179 F2400
G1 Z3 F720
M109 S240 ; wait for extruder temp

; intro line
G1 X170 F1000
G1 Z0.2 F720
G1 X110 E8 F600
G1 X40 E10 F400
G92 E0

M221 S95 ; set flow
G21 ; set units to millimeters
G90 ; use absolute coordinates
M83 ; use relative distances for extrusion
M900 K0.2 ; Filament gcode
M107
;LAYER_CHANGE
;Z:0.2
;HEIGHT:0.2
;BEFORE_LAYER_CHANGE
G92 E0.0
;0.2


M73 P1 R11
G1 E-3 F2700
M73 P3 R11
G1 Z.15 F720
G1 Z.2
;AFTER_LAYER_CHANGE
;0.2
G1 Z.35
G1 X81.005 Y80.721 F9000
G1 Z.2 F720
G1 E3 F1500
M204 P600
;TYPE:Skirt/Brim
;WIDTH:0.3
G1 F1200
G1 X81.886 Y79.942 E.02514
G1 X82.941 Y79.175 E.02788
G1 X83.954 Y78.578 E.02513
G1 X85.181 Y78.009 E.02891
G1 X86.415 Y77.584 E.0279
G1 X87.558 Y77.31 E.02513
G1 X88.85 Y77.128 E.02789
G1 X90.201 Y77.078 E.0289
G1 X91.375 Y77.15 E.02514
G1 X92.663 Y77.354 E.02788
G1 X93.801 Y77.649 E.02513
G1 X95.072 Y78.114 E.02893
G1 X96.244 Y78.685 E.02787
G1 X97.393 Y79.4 E.02893
G1 X98.325 Y80.116 E.02512
G1 X99.279 Y81.005 E.02787
G1 X100.058 Y81.886 E.02514
G1 X100.825 Y82.941 E.02788
G1 X101.504 Y84.111 E.02892
G1 X101.991 Y85.181 E.02513
G1 X102.416 Y86.415 E.0279
G1 X102.69 Y87.558 E.02513
G1 X102.872 Y88.85 E.02789
G1 X102.922 Y90.201 E.0289
G1 X102.85 Y91.375 E.02514
G1 X102.646 Y92.663 E.02788
G1 X102.298 Y93.97 E.02891
G1 X101.886 Y95.072 E.02515
G1 X101.315 Y96.244 E.02787
G1 X100.7 Y97.247 E.02515
G1 X99.884 Y98.325 E.0289
G1 X98.995 Y99.279 E.02787
G1 X98.114 Y100.058 E.02514
G1 X97.059 Y100.825 E.02788
G1 X95.889 Y101.504 E.02892
G1 X94.819 Y101.991 E.02513
G1 X93.585 Y102.416 E.0279
G1 X92.442 Y102.69 E.02513
G1 X91.15 Y102.872 E.02789
G1 X89.799 Y102.922 E.0289
G1 X88.625 Y102.85 E.02514
G1 X87.337 Y102.646 E.02788
G1 X86.199 Y102.351 E.02513
G1 X84.928 Y101.886 E.02893
G1 X83.756 Y101.315 E.02787
G1 X82.753 Y100.7 E.02515
G1 X81.712 Y99.915 E.02787
G1 X80.721 Y98.995 E.02891
G1 X79.942 Y98.114 E.02514
G1 X79.175 Y97.059 E.02788
G1 X78.578 Y96.046 E.02513
G1 X78.009 Y94.819 E.02891
G1 X77.584 Y93.585 E.0279
G1 X77.31 Y92.442 E.02513
G1 X77.128 Y91.15 E.02789
G1 X77.078 Y89.799 E.0289
G1 X77.15 Y88.625 E.02514
G1 X77.354 Y87.337 E.02788
G1 X77.649 Y86.199 E.02513
G1 X78.114 Y84.928 E.02893
G1 X78.685 Y83.756 E.02787
G1 X79.3 Y82.753 E.02515
G1 X80.085 Y81.712 E.02787
G1 X80.98 Y80.748 E.02812
M204 P1000
M73 P3 R10
G1 X81.168 Y80.923 F9000
M204 P600
G1 F1200
G1 X82.046 Y80.143 E.0251
G1 X83.083 Y79.389 E.02741
G1 X84.073 Y78.806 E.02456
G1 X85.276 Y78.248 E.02835
G1 X86.488 Y77.831 E.0274
G1 X87.605 Y77.562 E.02456
G1 X88.918 Y77.38 E.02834
G1 X90.199 Y77.335 E.0274
M73 P4 R10
G1 X91.346 Y77.406 E.02457
G1 X92.612 Y77.606 E.0274
G1 X93.724 Y77.894 E.02455
G1 X94.969 Y78.349 E.02834
G1 X96.121 Y78.911 E.0274
G1 X97.247 Y79.612 E.02835
G1 X98.158 Y80.311 E.02455
G1 X99.096 Y81.186 E.02742
G1 X99.857 Y82.046 E.02455
G1 X100.611 Y83.083 E.02741
G1 X101.276 Y84.23 E.02834
G1 X101.752 Y85.276 E.02457
G1 X102.169 Y86.488 E.0274
G1 X102.438 Y87.605 E.02456
G1 X102.616 Y88.874 E.02739
G1 X102.665 Y90.199 E.02834
G1 X102.594 Y91.346 E.02457
G1 X102.385 Y92.655 E.02834
G1 X102.053 Y93.893 E.0274
G1 X101.651 Y94.969 E.02455
G1 X101.089 Y96.121 E.0274
G1 X100.488 Y97.101 E.02457
G1 X99.717 Y98.125 E.0274
G1 X98.814 Y99.096 E.02834
G1 X97.954 Y99.857 E.02455
G1 X96.88 Y100.635 E.02835
G1 X95.77 Y101.276 E.0274
G1 X94.724 Y101.752 E.02457
G1 X93.512 Y102.169 E.0274
G1 X92.395 Y102.438 E.02456
G1 X91.126 Y102.616 E.02739
G1 X89.801 Y102.665 E.02834
G1 X88.654 Y102.594 E.02457
G1 X87.388 Y102.394 E.0274
G1 X86.107 Y102.053 E.02834
G1 X85.031 Y101.651 E.02455
G1 X83.879 Y101.089 E.0274
G1 X82.899 Y100.488 E.02457
G1 X81.875 Y99.717 E.0274
G1 X80.904 Y98.814 E.02834
G1 X80.143 Y97.954 E.02455
G1 X79.389 Y96.917 E.02741
G1 X78.806 Y95.927 E.02456
G1 X78.248 Y94.724 E.02835
G1 X77.831 Y93.512 E.0274
G1 X77.562 Y92.395 E.02456
G1 X77.384 Y91.126 E.02739
G1 X77.335 Y89.801 E.02834
G1 X77.406 Y88.654 E.02457
G1 X77.606 Y87.388 E.0274
G1 X77.894 Y86.276 E.02455
G1 X78.349 Y85.031 E.02834
G1 X78.911 Y83.879 E.0274
G1 X79.512 Y82.899 E.02457
G1 X80.283 Y81.875 E.0274
G1 X81.142 Y80.95 E.02698
M204 P1000
G1 X81.331 Y81.125 F9000
M204 P600
G1 F1200
G1 X82.206 Y80.344 E.02507
G1 X83.225 Y79.604 E.02692
G1 X84.192 Y79.034 E.02399
G1 X85.37 Y78.487 E.02776
G1 X86.561 Y78.077 E.02693
G1 X87.652 Y77.815 E.02398
G1 X88.899 Y77.64 E.02692
G1 X90.197 Y77.593 E.02776
G1 X91.317 Y77.661 E.02399
G1 X92.561 Y77.858 E.02692
G1 X93.647 Y78.139 E.02398
G1 X94.867 Y78.585 E.02777
G1 X95.999 Y79.137 E.02692
G1 X97.101 Y79.824 E.02776
G1 X97.991 Y80.507 E.02398
G1 X98.913 Y81.366 E.02694
G1 X99.656 Y82.206 E.02397
G1 X100.396 Y83.225 E.02692
G1 X101.048 Y84.349 E.02778
G1 X101.513 Y85.37 E.02398
G1 X101.923 Y86.561 E.02693
G1 X102.217 Y87.826 E.02776
G1 X102.363 Y88.938 E.02397
G1 X102.407 Y90.197 E.02693
G1 X102.339 Y91.317 E.02399
G1 X102.142 Y92.561 E.02692
G1 X101.808 Y93.816 E.02776
G1 X101.415 Y94.867 E.02399
G1 X100.863 Y95.999 E.02692
G1 X100.277 Y96.955 E.02397
G1 X99.518 Y97.961 E.02694
G1 X98.634 Y98.913 E.02777
G1 X97.794 Y99.656 E.02397
G1 X96.742 Y100.418 E.02777
G1 X95.651 Y101.048 E.02693
G1 X94.63 Y101.513 E.02398
G1 X93.439 Y101.923 E.02693
G1 X92.348 Y102.185 E.02398
G1 X91.101 Y102.36 E.02692
G1 X89.803 Y102.407 E.02776
G1 X88.683 Y102.339 E.02399
G1 X87.439 Y102.142 E.02692
G1 X86.353 Y101.861 E.02398
G1 X85.133 Y101.415 E.02777
G1 X84.001 Y100.863 E.02692
G1 X83.045 Y100.277 E.02397
G1 X82.039 Y99.518 E.02694
G1 X81.087 Y98.634 E.02777
G1 X80.344 Y97.794 E.02397
G1 X79.604 Y96.775 E.02692
G1 X79.034 Y95.808 E.02399
G1 X78.487 Y94.63 E.02776
G1 X78.077 Y93.439 E.02693
G1 X77.815 Y92.348 E.02398
G1 X77.64 Y91.101 E.02692
M73 P5 R10
G1 X77.593 Y89.803 E.02776
G1 X77.661 Y88.683 E.02399
G1 X77.858 Y87.439 E.02692
G1 X78.139 Y86.353 E.02398
G1 X78.585 Y85.133 E.02777
G1 X79.137 Y84.001 E.02692
G1 X79.723 Y83.045 E.02397
G1 X80.482 Y82.039 E.02694
G1 X81.305 Y81.153 E.02585
M204 P1000
; printing object Shape-Cylinder id:0 copy 0
G1 E-2.1 F2700
;WIPE_START
G1 F7200
G1 X82.206 Y80.344 E-.43138
G1 X83.225 Y79.604 E-.44864
G1 X83.273 Y79.576 E-.01998
;WIPE_END
G1 Z.35 F720
G1 X84.534 Y81.627 F9000
G1 Z.2 F720
G1 E3 F1500
M204 P600
;TYPE:External perimeter
;WIDTH:0.299999
G1 F1200
G1 X85.304 Y81.169 E.01915
G1 X85.773 Y80.935 E.0112
G1 X86.252 Y80.727 E.01116
G1 X87.077 Y80.435 E.01871
G1 X87.58 Y80.295 E.01116
G1 X88.092 Y80.182 E.01121
G1 X88.608 Y80.095 E.01119
G1 X89.127 Y80.036 E.01117
G1 X90.002 Y79.998 E.01872
G1 X90.523 Y80.012 E.01114
G1 X91.045 Y80.053 E.01119
G1 X91.565 Y80.121 E.01121
G1 X92.078 Y80.216 E.01115
G1 X92.926 Y80.436 E.01873
G1 X93.421 Y80.601 E.01115
G1 X93.907 Y80.793 E.01117
G1 X94.697 Y81.169 E.0187
G1 X95.151 Y81.427 E.01116
G1 X95.592 Y81.707 E.01117
G1 X96.295 Y82.228 E.0187
G1 X96.693 Y82.567 E.01118
G1 X97.072 Y82.927 E.01117
G1 X97.663 Y83.572 E.0187
G1 X97.988 Y83.981 E.01117
G1 X98.291 Y84.406 E.01116
G1 X98.749 Y85.152 E.01871
G1 X98.99 Y85.615 E.01116
G1 X99.206 Y86.091 E.01117
G1 X99.598 Y87.197 E.02508
G1 X99.726 Y87.681 E.0107
G1 X99.833 Y88.186 E.01103
G1 X99.912 Y88.687 E.01084
G1 X99.967 Y89.2 E.01103
G1 X100.002 Y89.999 E.0171
G1 X99.964 Y90.873 E.0187
G1 X99.905 Y91.392 E.01117
G1 X99.818 Y91.909 E.01121
G1 X99.705 Y92.42 E.01119
G1 X99.565 Y92.923 E.01116
G1 X99.273 Y93.748 E.01871
G1 X99.065 Y94.227 E.01116
G1 X98.831 Y94.696 E.0112
G1 X98.573 Y95.151 E.01118
G1 X98.292 Y95.593 E.0112
G1 X97.988 Y96.019 E.01119
G1 X97.663 Y96.428 E.01117
G1 X97.072 Y97.072 E.01868
G1 X96.427 Y97.663 E.0187
G1 X96.019 Y97.988 E.01115
G1 X95.594 Y98.291 E.01116
G1 X94.848 Y98.749 E.01871
G1 X94.385 Y98.99 E.01116
G1 X93.908 Y99.207 E.0112
G1 X93.421 Y99.399 E.01119
G1 X92.924 Y99.565 E.0112
G1 X92.42 Y99.705 E.01118
G1 X91.908 Y99.818 E.01121
G1 X91.392 Y99.905 E.01119
G1 X90.873 Y99.964 E.01117
G1 X90 Y100.002 E.01868
G1 X89.127 Y99.964 E.01868
G1 X88.608 Y99.905 E.01117
G1 X88.091 Y99.818 E.01121
G1 X87.58 Y99.705 E.01119
G1 X87.077 Y99.565 E.01116
G1 X86.252 Y99.273 E.01871
G1 X85.773 Y99.065 E.01116
G1 X85.304 Y98.831 E.0112
G1 X84.849 Y98.573 E.01118
G1 X84.408 Y98.293 E.01117
G1 X83.705 Y97.772 E.0187
G1 X83.307 Y97.433 E.01118
G1 X82.928 Y97.073 E.01117
G1 X82.337 Y96.428 E.0187
G1 X82.012 Y96.019 E.01117
G1 X81.708 Y95.593 E.01119
G1 X81.427 Y95.151 E.0112
G1 X81.169 Y94.697 E.01116
G1 X80.792 Y93.906 E.01873
G1 X80.601 Y93.421 E.01114
G1 X80.435 Y92.924 E.0112
G1 X80.295 Y92.42 E.01118
G1 X80.182 Y91.91 E.01117
G1 X80.053 Y91.044 E.01872
G1 X80.012 Y90.523 E.01117
G1 X79.998 Y90 E.01118
G1 X80.012 Y89.477 E.01118
G1 X80.053 Y88.956 E.01117
G1 X80.182 Y88.092 E.01867
G1 X80.386 Y87.241 E.01871
G1 X80.543 Y86.744 E.01114
G1 X80.726 Y86.254 E.01118
G1 X81.089 Y85.457 E.01872
G1 X81.338 Y84.999 E.01114
G1 X81.612 Y84.553 E.01119
G1 X81.908 Y84.121 E.01119
G1 X82.227 Y83.706 E.01119
G1 X82.567 Y83.307 E.01121
G1 X82.928 Y82.928 E.01119
G1 X83.307 Y82.567 E.01119
G1 X83.705 Y82.228 E.01118
G1 X84.503 Y81.647 E.0211
M204 P1000
G1 E-2.1 F2700
;WIPE_START
G1 F7200
G1 X85.304 Y81.169 E-.3323
G1 X85.773 Y80.935 E-.18672
G1 X86.252 Y80.727 E-.18604
G1 X86.768 Y80.544 E-.19494
;WIPE_END
G1 Z.35 F720
G1 X98.624 Y85.17 F9000
G1 Z.2 F720
G1 E3 F1500
M204 P600
;TYPE:Solid infill
;WIDTH:0.300037
G1 F1200
G1 X95.161 Y81.707 E.1047
G1 X94.59 Y81.375 E.01412
G1 X94.351 Y81.261 E.00566
G1 X98.754 Y85.664 E.13312
G1 X99.044 Y86.317 E.01528
G1 X93.678 Y80.951 E.16224
G1 X93.101 Y80.738 E.01315
G1 X99.261 Y86.898 E.18625
G1 X99.424 Y87.424 E.01177
G1 X92.586 Y80.587 E.20673
G1 X92.096 Y80.46 E.01082
G1 X99.542 Y87.906 E.22513
G1 X99.629 Y88.357 E.00982
M73 P6 R10
G1 X91.643 Y80.371 E.24146
G1 X91.217 Y80.309 E.0092
G1 X99.691 Y88.783 E.25621
G1 X99.733 Y89.189 E.00873
G1 X90.815 Y80.27 E.26965
G1 X90.427 Y80.246 E.00831
G1 X99.759 Y89.578 E.28215
G1 X99.769 Y89.952 E.008
G1 X90.048 Y80.231 E.29391
G1 X89.697 Y80.243 E.00751
G1 X99.757 Y90.303 E.30416
G1 X99.742 Y90.651 E.00745
G1 X89.349 Y80.258 E.31423
G1 X89.009 Y80.283 E.00729
G1 X99.717 Y90.991 E.32376
G1 X99.68 Y91.317 E.00701
G1 X88.683 Y80.32 E.33249
G1 X88.369 Y80.37 E.0068
G1 X99.63 Y91.631 E.34048
M73 P7 R10
G1 X99.575 Y91.939 E.00669
G1 X88.061 Y80.425 E.34813
G1 X87.764 Y80.491 E.0065
G1 X99.509 Y92.236 E.35511
G1 X99.435 Y92.526 E.0064
G1 X87.474 Y80.565 E.36164
G1 X87.189 Y80.644 E.00632
G1 X99.356 Y92.811 E.36787
G1 X99.264 Y93.082 E.00612
G1 X86.918 Y80.736 E.37328
G1 X86.649 Y80.832 E.00611
G1 X99.168 Y93.351 E.37851
G1 X99.073 Y93.619 E.00608
G1 X86.381 Y80.927 E.38374
G1 X86.125 Y81.034 E.00593
M73 P8 R10
G1 X98.966 Y93.875 E.38825
G1 X98.855 Y94.128 E.00591
G1 X85.872 Y81.145 E.39254
G1 X85.629 Y81.266 E.0058
G1 X98.734 Y94.371 E.39623
G1 X98.612 Y94.613 E.00579
G1 X85.387 Y81.388 E.39986
G1 X85.155 Y81.519 E.0057
G1 X98.481 Y94.845 E.40291
G1 X98.348 Y95.075 E.00568
G1 X84.925 Y81.652 E.40584
G1 X84.703 Y81.794 E.00563
G1 X98.206 Y95.297 E.40826
G1 X98.062 Y95.517 E.00562
M73 P9 R10
G1 X84.484 Y81.939 E.41053
G1 X84.275 Y82.094 E.00556
G1 X97.911 Y95.729 E.41227
G1 X97.757 Y95.939 E.00557
G1 X84.066 Y82.248 E.41395
G1 X83.857 Y82.403 E.00556
G1 X97.595 Y96.141 E.41537
G1 X97.43 Y96.339 E.00551
G1 X83.661 Y82.57 E.41631
G1 X83.464 Y82.737 E.00552
G1 X97.256 Y96.529 E.417
G1 X97.082 Y96.719 E.00551
G1 X83.278 Y82.914 E.41738
G1 X83.091 Y83.091 E.0055
M73 P10 R10
G1 X96.909 Y96.909 E.41779
G1 X96.719 Y97.083 E.00551
G1 X82.914 Y83.278 E.41739
G1 X82.737 Y83.464 E.00549
G1 X96.529 Y97.256 E.417
G1 X96.339 Y97.43 E.00551
G1 X82.57 Y83.661 E.41631
G1 X82.402 Y83.857 E.00552
G1 X96.141 Y97.596 E.4154
G1 X95.938 Y97.757 E.00554
G1 X82.245 Y84.063 E.41402
G1 X82.087 Y84.269 E.00555
G1 X95.729 Y97.911 E.41247
G1 X95.517 Y98.062 E.00556
M73 P11 R10
G1 X81.939 Y84.485 E.41052
G1 X81.792 Y84.701 E.00559
G1 X95.294 Y98.203 E.40823
G1 X95.069 Y98.342 E.00565
G1 X81.654 Y84.926 E.40562
G1 X81.517 Y85.154 E.00569
G1 X94.844 Y98.48 E.40293
G1 X94.611 Y98.611 E.00571
G1 X81.389 Y85.389 E.39977
G1 X81.265 Y85.629 E.00578
G1 X94.372 Y98.735 E.39627
G1 X94.126 Y98.853 E.00583
G1 X81.151 Y85.879 E.39228
G1 X81.038 Y86.128 E.00585
M73 P12 R10
G1 X93.876 Y98.967 E.38817
G1 X93.618 Y99.072 E.00596
G1 X80.926 Y86.38 E.38374
G1 X80.827 Y86.645 E.00605
G1 X93.357 Y99.175 E.37884
G1 X93.085 Y99.267 E.00614
G1 X80.732 Y86.914 E.37349
G1 X80.645 Y87.19 E.00619
G1 X92.811 Y99.356 E.36784
G1 X92.526 Y99.435 E.00632
M73 P12 R9
G1 X80.568 Y87.476 E.36157
G1 X80.497 Y87.77 E.00647
G1 X92.236 Y99.509 E.35493
G1 X91.939 Y99.575 E.0065
G1 X80.427 Y88.063 E.34807
G1 X80.374 Y88.373 E.00672
M73 P13 R9
G1 X91.63 Y99.63 E.34034
G1 X91.317 Y99.68 E.00678
G1 X80.326 Y88.69 E.3323
G1 X80.281 Y89.008 E.00687
G1 X90.991 Y99.717 E.3238
G1 X90.651 Y99.742 E.00729
G1 X80.254 Y89.345 E.31435
G1 X80.238 Y89.692 E.00743
G1 X90.303 Y99.757 E.30432
G1 X89.95 Y99.768 E.00755
G1 X80.231 Y90.049 E.29385
G1 X80.241 Y90.422 E.00798
G1 X89.57 Y99.751 E.28206
G1 X89.19 Y99.735 E.00813
G1 X80.267 Y90.811 E.2698
G1 X80.313 Y91.222 E.00884
G1 X88.783 Y99.692 E.25609
G1 X88.356 Y99.628 E.00923
M73 P14 R9
G1 X80.377 Y91.649 E.24124
G1 X80.46 Y92.096 E.00972
G1 X87.904 Y99.54 E.22507
G1 X87.421 Y99.421 E.01064
G1 X80.579 Y92.579 E.20687
G1 X80.738 Y93.101 E.01167
G1 X86.891 Y99.254 E.18604
G1 X86.327 Y99.053 E.0128
G1 X80.951 Y93.678 E.16253
G1 X81.261 Y94.351 E.01584
G1 X85.659 Y98.75 E.13299
G1 X85.413 Y98.627 E.00588
G1 X84.839 Y98.293 E.0142
G1 X81.38 Y94.834 E.10458
M204 P1000
; stop printing object Shape-Cylinder id:0 copy 0
;LAYER_CHANGE
;Z:0.35
;HEIGHT:0.15
;BEFORE_LAYER_CHANGE
G92 E0.0
;0.35


G1 E-2.1 F2700
;WIPE_START
G1 F7200
G1 X83.166 Y96.62 E-.9
;WIPE_END
G1 Z.35 F720
;AFTER_LAYER_CHANGE
;0.35
G1 Z.5
G1 X80.85 Y99.114 F9000
G1 Z.35 F720
G1 E3 F1500
;TYPE:Skirt/Brim
;WIDTH:0.3
G1 F2400
G1 X80.721 Y98.995 E.00293
G1 X79.942 Y98.114 E.01964
G1 X79.175 Y97.059 E.02178
G1 X78.578 Y96.046 E.01964
G1 X78.009 Y94.819 E.02259
G1 X77.584 Y93.585 E.0218
G1 X77.31 Y92.442 E.01963
G1 X77.128 Y91.15 E.02179
G1 X77.078 Y89.799 E.02258
G1 X77.15 Y88.625 E.01964
G1 X77.354 Y87.337 E.02178
G1 X77.649 Y86.199 E.01963
G1 X78.114 Y84.928 E.0226
G1 X78.685 Y83.756 E.02177
G1 X79.3 Y82.753 E.01965
G1 X80.085 Y81.712 E.02178
G1 X81.005 Y80.721 E.02258
G1 X81.886 Y79.942 E.01964
G1 X82.941 Y79.175 E.02178
G1 X83.954 Y78.578 E.01964
G1 X85.181 Y78.009 E.02259
G1 X86.415 Y77.584 E.0218
G1 X87.558 Y77.31 E.01963
G1 X88.85 Y77.128 E.02179
G1 X90.201 Y77.078 E.02258
G1 X91.375 Y77.15 E.01964
G1 X92.663 Y77.354 E.02178
G1 X93.801 Y77.649 E.01963
G1 X95.072 Y78.114 E.0226
G1 X96.244 Y78.685 E.02177
G1 X97.393 Y79.4 E.0226
G1 X98.325 Y80.116 E.01963
G1 X99.279 Y81.005 E.02178
G1 X100.058 Y81.886 E.01964
G1 X100.825 Y82.941 E.02178
G1 X101.504 Y84.111 E.02259
G1 X101.991 Y85.181 E.01963
G1 X102.416 Y86.415 E.0218
G1 X102.69 Y87.558 E.01963
G1 X102.872 Y88.85 E.02179
G1 X102.922 Y90.201 E.02258
G1 X102.85 Y91.375 E.01964
G1 X102.646 Y92.663 E.02178
G1 X102.298 Y93.97 E.02259
