; generated by PrusaSlicer 2.6.0+win64 on 2023-08-04 at 20:43:20 UTC


;
;

;
;
; 

; external perimeters extrusion width = 0.90mm
; perimeters extrusion width = 0.90mm
; infill extrusion width = 0.90mm
; solid infill extrusion width = 0.90mm
; top infill extrusion width = 0.80mm
; first layer extrusion width = 0.90mm

M73 P0 R11
M201 X2500 Y2500 Z400 E5000 ; sets maximum accelerations, mm/sec^2
M203 X180 Y180 Z12 E80 ; sets maximum feedrates, mm / sec
M204 P2000 R1250 T2500 ; sets acceleration (P, T) and retract acceleration (R), mm/sec^2
M205 X8.00 Y8.00 Z2.00 E10.00 ; sets the jerk limits, mm/sec
M205 S0 T0 ; sets the minimum extruding and travel feed rate, mm/sec
;TYPE:Custom
M862.3 P "MINI" ; printer model check
G90 ; use absolute coordinates
M83 ; extruder relative mode
M104 S170 ; set extruder temp for bed leveling
M140 S60 ; set bed temp
M109 R170 ; wait for bed leveling temp
M190 S60 ; wait for bed temp
M204 T1250 ; set travel acceleration
G28 ; home all without mesh bed level
G29 ; mesh bed leveling 
M204 T2500 ; restore travel acceleration
M104 S220 ; set extruder temp
G92 E0
G1 Y-2 X179 F2400; g1: 1
G1 Z3 F720; g1: 2
M109 S220 ; wait for extruder temp

; intro line
G1 X170 F1000; g1: 3
G1 Z0.2 F720; g1 4
G1 X110 E8 F900; g1 5
G1 X40 E10 F700; g1 6
G92 E0

M221 S95 ; set flow
G21 ; set units to millimeters
G90 ; use absolute coordinates
M83 ; use relative distances for extrusion
M900 K0.06 ; Filament gcode LA 1.5
; ; Filament gcode LA 1.0
M107
;LAYER_CHANGE
;Z:0.3
;HEIGHT:0.3
;BEFORE_LAYER_CHANGE
G92 E0.0
;0.3


M73 P1 R11
G1 E-3 F2700; g1: 7
M73 P2 R11
G1 Z.2 F720; g1: 8
G1 Z.3; g1: 9
;AFTER_LAYER_CHANGE
;0.3
G1 Z.5; g1: 10
G1 X78.662 Y77.959 F9000; g1: 11
G1 Z.3 F720
G1 E3 F1200
M204 P800
;TYPE:Skirt/Brim
;WIDTH:0.9
G1 X81 Y77.164 E.25738
G1 X99 Y77.164 E1.87602
G1 X100.695 Y77.559 E.18139
G1 X102.041 Y78.662 E.18137
G1 X102.836 Y81 E.25738
G1 X102.836 Y99 E1.87602
G1 X102.441 Y100.695 E.18139
G1 X101.338 Y102.041 E.18137
G1 X99 Y102.836 E.25738
G1 X81 Y102.836 E1.87602
M73 P2 R10
G1 X79.305 Y102.441 E.18139
G1 X77.959 Y101.338 E.18137
G1 X77.164 Y99 E.25738
G1 X77.164 Y81 E1.87602
G1 X77.559 Y79.305 E.18139
M73 P3 R10
G1 X78.586 Y78.052 E.16885
M204 P1000
; printing object Shape-Box id:0 copy 0
G1 E-2.1 F2700
;WIPE_START
G1 F7200
G1 X80.957 Y77.18 E-.9
;WIPE_END
G1 Z.5 F720
G1 X97.514 Y97.514 F9000
G1 Z.3 F720
G1 E3 F1200
M204 P800
;TYPE:Perimeter
;WIDTH:0.899999
G1 X82.486 Y97.514 E1.56626
G1 X82.486 Y82.486 E1.56626
G1 X97.514 Y82.486 E1.56626
G1 X97.514 Y97.394 E1.55376
M204 P1000
G1 X98.35 Y98.35 F9000
M204 P800
;TYPE:External perimeter
G1 F1200
G1 X81.65 Y98.35 E1.74052
G1 X81.65 Y81.65 E1.74052
G1 X98.35 Y81.65 E1.74052
G1 X98.35 Y98.23 E1.72802
M204 P1000
M73 P4 R10
G1 X97.577 Y98.143 F9000
G1 E-2.1 F2700
;WIPE_START
G1 F7200
G1 X95.824 Y98.248 E-.9
;WIPE_END
G1 Z.5 F720
G1 X97.18 Y84.542 F9000
G1 Z.3 F720
G1 E3 F1200
M204 P800
;TYPE:Solid infill
;WIDTH:0.915491
G1 X95.834 Y83.196 E.20207
G1 X94.631 Y83.196 E.1277
G1 X96.804 Y85.369 E.32622
G1 X96.804 Y86.573 E.12781
G1 X93.427 Y83.196 E.50698
G1 X92.223 Y83.196 E.12781
G1 X96.804 Y87.777 E.68773
G1 X96.804 Y88.98 E.1277
G1 X91.02 Y83.196 E.86833
G1 X89.816 Y83.196 E.12781
G1 X96.804 Y90.184 E1.04908
G1 X96.804 Y91.388 E.12781
G1 X88.612 Y83.196 E1.22983
G1 X87.409 Y83.196 E.1277
G1 X96.804 Y92.591 E1.41043
G1 X96.804 Y93.795 E.12781
G1 X86.205 Y83.196 E1.59119
G1 X85.001 Y83.196 E.12781
G1 X96.804 Y94.999 E1.77194
G1 X96.804 Y96.202 E.1277
M73 P5 R10
G1 X83.798 Y83.196 E1.95254
G1 X83.196 Y83.196 E.06391
G1 X83.196 Y83.798 E.06391
G1 X96.202 Y96.804 E1.95254
G1 X94.999 Y96.804 E.1277
G1 X83.196 Y85.001 E1.77194
G1 X83.196 Y86.205 E.12781
G1 X93.795 Y96.804 E1.59119
G1 X92.591 Y96.804 E.12781
G1 X83.196 Y87.409 E1.41043
G1 X83.196 Y88.612 E.1277
G1 X91.388 Y96.804 E1.22983
G1 X90.184 Y96.804 E.12781
G1 X83.196 Y89.816 E1.04908
G1 X83.196 Y91.02 E.12781
G1 X88.98 Y96.804 E.86833
G1 X87.777 Y96.804 E.1277
G1 X83.196 Y92.223 E.68773
G1 X83.196 Y93.427 E.12781
G1 X86.573 Y96.804 E.50698
M73 P6 R10
G1 X85.369 Y96.804 E.12781
G1 X83.196 Y94.631 E.32622
G1 X83.196 Y95.834 E.1277
G1 X84.542 Y97.18 E.20207
M204 P1000
; stop printing object Shape-Box id:0 copy 0
M106 S84.15
;LAYER_CHANGE
;Z:0.7
;HEIGHT:0.4
;BEFORE_LAYER_CHANGE
G92 E0.0
;0.7


G1 E-2.1 F2700
;WIPE_START
G1 F7200
G1 X83.196 Y95.834 E-.67813
G1 X83.196 Y95.211 E-.22187
;WIPE_END
G1 Z.5 F720
G1 Z.7
;AFTER_LAYER_CHANGE
;0.7
G1 Z.9
G1 X77.164 Y95.211 F9000
G1 Z.7 F720
G1 E3 F1200
;TYPE:Skirt/Brim
;WIDTH:0.9
G1 F1642
G1 X77.164 Y81 E1.9241
G1 X77.559 Y79.305 E.23564
G1 X78.662 Y77.959 E.23562
G1 X81 Y77.164 E.33435
G1 X99 Y77.164 E2.43711
G1 X100.695 Y77.559 E.23564
G1 X102.041 Y78.662 E.23562
G1 X102.836 Y81 E.33435
G1 X102.836 Y99 E2.43711
G1 X102.441 Y100.695 E.23564
G1 X101.338 Y102.041 E.23562
G1 X99 Y102.836 E.33435
G1 X81 Y102.836 E2.43711
G1 X79.305 Y102.441 E.23564
G1 X77.959 Y101.338 E.23562
G1 X77.164 Y99 E.33435
G1 X77.164 Y95.331 E.49677
; printing object Shape-Box id:0 copy 0
G1 E-2.1 F2700
;WIPE_START
G1 F7200
G1 X77.164 Y92.805 E-.9
;WIPE_END
G1 Z.9 F720
G1 X97.736 Y97.736 F9000
G1 Z.7 F720
G1 E3 F1200
;TYPE:Perimeter
;WIDTH:0.9
G1 F1642
G1 X82.264 Y97.736 E2.09483
G1 X82.264 Y82.264 E2.09483
G1 X97.736 Y82.264 E2.09483
G1 X97.736 Y97.616 E2.07859
M73 P7 R10
G1 X98.55 Y98.55 F9000
M204 P800
;TYPE:External perimeter
G1 F1500
G1 X81.45 Y98.55 E2.31526
G1 X81.45 Y81.45 E2.31526
G1 X98.55 Y81.45 E2.31526
G1 X98.55 Y98.43 E2.29901
M204 P1000
G1 X97.777 Y98.343 F9000
G1 E-2.1 F2700
;WIPE_START
G1 F7200
G1 X96.024 Y98.448 E-.9
;WIPE_END
G1 Z.9 F720
G1 X83.177 Y83.022 F9000
G1 Z.7 F720
G1 E3 F1200
M204 P1500
;TYPE:Solid infill
;WIDTH:1.09754
G1 F1642
G1 X83.088 Y82.933 E.02118
G1 X82.966 Y82.966 E.02126
G1 X82.933 Y83.088 E.02126
G1 X83.022 Y83.177 E.02118
G1 X83.144 Y83.144 E.02126
;WIDTH:0.9
G1 X82.956 Y84.445 E.17798
G1 X84.445 Y82.956 E.28511
G1 X85.596 Y82.956 E.15584
G1 X82.956 Y85.596 E.5055
G1 X82.956 Y86.748 E.15598
G1 X86.748 Y82.956 E.72608
G1 X87.899 Y82.956 E.15584
G1 X82.956 Y87.899 E.94647
G1 X82.956 Y89.05 E.15584
G1 X89.05 Y82.956 E1.16687
G1 X90.202 Y82.956 E.15598
G1 X82.956 Y90.202 E1.38745
G1 X82.956 Y91.353 E.15584
G1 X91.353 Y82.956 E1.60784
G1 X92.505 Y82.956 E.15598
G1 X82.956 Y92.505 E1.82842
G1 X82.956 Y93.656 E.15584
M73 P8 R10
G1 X93.656 Y82.956 E2.04881
G1 X94.807 Y82.956 E.15584
G1 X82.956 Y94.807 E2.2692
G1 X82.956 Y95.959 E.15598
G1 X95.959 Y82.956 E2.48978
G1 X97.044 Y83.023 E.14718
G1 X83.023 Y97.044 E2.68471
G1 X84.174 Y97.044 E.15584
G1 X97.044 Y84.174 E2.46432
G1 X97.044 Y85.325 E.15584
G1 X85.325 Y97.044 E2.24393
G1 X86.477 Y97.044 E.15598
G1 X97.044 Y86.477 E2.02335
G1 X97.044 Y87.628 E.15584
G1 X87.628 Y97.044 E1.80295
G1 X88.78 Y97.044 E.15598
G1 X97.044 Y88.78 E1.58237
G1 X97.044 Y89.931 E.15584
G1 X89.931 Y97.044 E1.36198
G1 X91.082 Y97.044 E.15584
G1 X97.044 Y91.082 E1.14159
G1 X97.044 Y92.234 E.15598
M73 P9 R10
G1 X92.234 Y97.044 E.92101
G1 X93.385 Y97.044 E.15584
G1 X97.044 Y93.385 E.70062
G1 X97.044 Y94.536 E.15584
G1 X94.536 Y97.044 E.48023
G1 X95.688 Y97.044 E.15598
G1 X97.044 Y95.688 E.25964
G1 X97.097 Y96.954 E.17156
;WIDTH:1.0198
G1 X97.014 Y96.871 E.01823
G1 X96.901 Y96.901 E.01816
G1 X96.871 Y97.014 E.01816
G1 X96.954 Y97.097 E.01823
G1 X97.066 Y97.066 E.01805
M204 P1000
; stop printing object Shape-Box id:0 copy 0
M106 S170.85
;LAYER_CHANGE
;Z:1.1
;HEIGHT:0.4
;BEFORE_LAYER_CHANGE
G92 E0.0
;1.1


G1 E-2.1 F2700
;WIPE_START
G1 F7200
G1 X96.954 Y97.097 E-.0414
G1 X96.871 Y97.014 E-.04182
G1 X96.901 Y96.901 E-.04165
G1 X97.014 Y96.871 E-.04165
G1 X97.097 Y96.954 E-.04182
G1 X97.044 Y95.688 E-.45141
G1 X96.567 Y96.165 E-.24025
;WIPE_END
G1 Z.9 F720
G1 Z1.1
;AFTER_LAYER_CHANGE
;1.1
; printing object Shape-Box id:0 copy 0
G1 Z1.3
G1 X97.736 Y97.736 F9000
G1 Z1.1 F720
G1 E3 F1200
;TYPE:Perimeter
;WIDTH:0.9
G1 F1287

G1 X82.264 Y97.736 E2.09483
G1 X82.264 Y82.264 E2.09483
G1 X97.736 Y82.264 E2.09483
G1 X97.736 Y97.616 E2.07859

G1 X98.55 Y98.55 F9000
M204 P800
;TYPE:External perimeter
G1 F1287
G1 X81.45 Y98.55 E2.31526
G1 X81.45 Y81.45 E2.31526
G1 X98.55 Y81.45 E2.31526
G1 X98.55 Y98.43 E2.29901
M204 P1000
M73 P10 R10
G1 X97.777 Y98.343 F9000
G1 E-2.1 F2700
;WIPE_START
G1 F7200
G1 X96.024 Y98.448 E-.9
;WIPE_END
G1 Z1.3 F720
G1 X83.022 Y96.823 F9000
G1 Z1.1 F720
G1 E3 F1200
M204 P1500
;TYPE:Solid infill
;WIDTH:1.09754
G1 F1287
G1 X82.933 Y96.912 E.02118
G1 X82.966 Y97.034 E.02126
G1 X83.088 Y97.067 E.02126
G1 X83.177 Y96.978 E.02118
G1 X83.144 Y96.856 E.02126
;WIDTH:0.9
G1 X82.956 Y95.555 E.17798
G1 X84.445 Y97.044 E.28511
G1 X85.596 Y97.044 E.15584
G1 X82.956 Y94.404 E.5055
G1 X82.956 Y93.252 E.15598
G1 X86.748 Y97.044 E.72608
G1 X87.899 Y97.044 E.15584
G1 X82.956 Y92.101 E.94647
G1 X82.956 Y90.95 E.15584
G1 X89.05 Y97.044 E1.16687
G1 X90.202 Y97.044 E.15598
G1 X82.956 Y89.798 E1.38745
G1 X82.956 Y88.647 E.15584
G1 X91.353 Y97.044 E1.60784
G1 X92.505 Y97.044 E.15598
G1 X82.956 Y87.495 E1.82842
G1 X82.956 Y86.344 E.15584
G1 X93.656 Y97.044 E2.04881
G1 X94.807 Y97.044 E.15584
G1 X82.956 Y85.193 E2.2692
G1 X82.956 Y84.041 E.15598
G1 X95.959 Y97.044 E2.48978
G1 X97.044 Y96.977 E.14718
M73 P11 R10
G1 X83.023 Y82.956 E2.68471
G1 X84.174 Y82.956 E.15584
G1 X97.044 Y95.826 E2.46432
G1 X97.044 Y94.675 E.15584
G1 X85.325 Y82.956 E2.24393
G1 X86.477 Y82.956 E.15598
G1 X97.044 Y93.523 E2.02335
G1 X97.044 Y92.372 E.15584
G1 X87.628 Y82.956 E1.80295
G1 X88.78 Y82.956 E.15598
M73 P11 R9
G1 X97.044 Y91.22 E1.58237
G1 X97.044 Y90.069 E.15584
G1 X89.931 Y82.956 E1.36198
G1 X91.082 Y82.956 E.15584
G1 X97.044 Y88.918 E1.14159
G1 X97.044 Y87.766 E.15598
G1 X92.234 Y82.956 E.92101
G1 X93.385 Y82.956 E.15584
M73 P12 R9
G1 X97.044 Y86.615 E.70062
G1 X97.044 Y85.464 E.15584
G1 X94.536 Y82.956 E.48023
G1 X95.688 Y82.956 E.15598
G1 X97.044 Y84.312 E.25964
G1 X97.066 Y82.934 E.1866
;WIDTH:1.01979
G1 X97.097 Y83.046 E.01805
G1 X97.014 Y83.129 E.01823
G1 X96.901 Y83.099 E.01816
G1 X96.871 Y82.986 E.01816
G1 X96.954 Y82.903 E.01823
M204 P1000
; stop printing object Shape-Box id:0 copy 0
M106 S255
;LAYER_CHANGE
;Z:1.5
;HEIGHT:0.4
;BEFORE_LAYER_CHANGE
G92 E0.0
;1.5


G1 E-2.1 F2700
;WIPE_START
G1 F7200
G1 X96.871 Y82.986 E-.04182
G1 X96.901 Y83.099 E-.04165
G1 X97.014 Y83.129 E-.04165
G1 X97.097 Y83.046 E-.04182
G1 X97.066 Y82.934 E-.0414
G1 X97.044 Y84.312 E-.49098
G1 X96.646 Y83.914 E-.20068
;WIPE_END
G1 Z1.3 F720
G1 Z1.5
;AFTER_LAYER_CHANGE
;1.5
; printing object Shape-Box id:0 copy 0
G1 Z1.7
G1 X97.736 Y97.736 F9000
G1 Z1.5 F720
G1 E3 F1200
;TYPE:Perimeter
;WIDTH:0.9
G1 F900
G1 X82.264 Y97.736 E2.09483
G1 X82.264 Y82.264 E2.09483
G1 X97.736 Y82.264 E2.09483
G1 X97.736 Y97.616 E2.07859
G1 X98.55 Y98.55 F9000
M204 P800
;TYPE:External perimeter
G1 F900
G1 X81.45 Y98.55 E2.31526
G1 X81.45 Y81.45 E2.31526
G1 X98.55 Y81.45 E2.31526
M73 P13 R9
G1 X98.55 Y98.43 E2.29901
M204 P1000
G1 X97.777 Y98.343 F9000
G1 E-2.1 F2700
;WIPE_START
G1 F7200
G1 X96.024 Y98.448 E-.9
;WIPE_END
G1 Z1.7 F720
G1 X97.044 Y93.712 F9000
G1 Z1.5 F720
G1 E3 F1200
M204 P1500
;TYPE:Internal infill
;WIDTH:0.9
G1 F900
G1 X97.044 Y91.212 E.33849
G1 X96.886 Y91.31 E.02517
G1 X96.314 Y91.747 E.09746
G1 X95.859 Y92.184 E.08542
G1 X95.498 Y92.621 E.07675
G1 X94.969 Y93.494 E.13821
G1 X94.613 Y94.368 E.12778
G1 X94.39 Y95.241 E.122
G1 X94.362 Y96.115 E.1184
G1 X94.522 Y96.552 E.06301
G1 X94.928 Y96.988 E.08066
G1 X95.015 Y97.044 E.01401
G1 X92.112 Y97.044 E.39305
G1 X92.06 Y96.988 E.01035
G1 X91.378 Y96.552 E.1096
G1 X90.599 Y96.115 E.12094
G1 X89.898 Y95.678 E.11184
G1 X89.325 Y95.241 E.09757
G1 X88.871 Y94.805 E.08523
G1 X88.509 Y94.368 E.07683
G1 X87.981 Y93.494 E.13825
G1 X87.625 Y92.621 E.12765
G1 X87.402 Y91.747 E.12213
G1 X87.374 Y90.874 E.11826
G1 X87.533 Y90.437 E.06296
G1 X87.94 Y90 E.08085
G1 X88.622 Y89.563 E.10967
G1 X89.401 Y89.126 E.12094
G1 X90.102 Y88.69 E.11177
G1 X90.675 Y88.253 E.09757
G1 X91.129 Y87.816 E.08532
G1 X91.491 Y87.379 E.07683
G1 X92.019 Y86.506 E.13814
G1 X92.375 Y85.632 E.12778
G1 X92.598 Y84.759 E.122
G1 X92.626 Y83.885 E.1184
G1 X92.467 Y83.448 E.06296
G1 X92.06 Y83.012 E.08076
G1 X91.974 Y82.956 E.0139
G1 X94.877 Y82.956 E.39305
G1 X94.928 Y83.012 E.01026
G1 X95.61 Y83.448 E.1096
G1 X96.389 Y83.885 E.12094
G1 X97.044 Y84.293 E.10448
G1 X97.044 Y86.793 E.33849
M204 P1000
G1 E-2.1 F2700
;WIPE_START
G1 F7200
G1 X97.044 Y84.293 E-.89063
G1 X97.022 Y84.279 E-.00937
;WIPE_END
G1 Z1.7 F720
G1 X84.189 Y82.956 F9000
G1 Z1.5 F720
G1 E3 F1200
M204 P1500
M73 P14 R9
G1 F900
G1 X82.956 Y82.956 E.16694
G1 X82.956 Y84.224 E.17168
G1 X83.114 Y84.322 E.02517
G1 X83.686 Y84.759 E.09746
G1 X84.141 Y85.195 E.08532
G1 X84.502 Y85.632 E.07675
G1 X85.031 Y86.506 E.13832
G1 X85.387 Y87.379 E.12765
G1 X85.61 Y88.253 E.12213
G1 X85.638 Y89.126 E.11826
G1 X85.478 Y89.563 E.06301
G1 X85.072 Y90 E.08076
G1 X84.39 Y90.437 E.10967
G1 X83.611 Y90.874 E.12094
G1 X82.956 Y91.281 E.10441
G1 X82.956 Y93.781 E.33849
M204 P1000
; stop printing object Shape-Box id:0 copy 0
;LAYER_CHANGE
;Z:1.9
;HEIGHT:0.4
;BEFORE_LAYER_CHANGE
G92 E0.0
;1.9


G1 E-2.1 F2700
;WIPE_START
G1 F7200
G1 X82.956 Y91.281 E-.89063
G1 X82.978 Y91.267 E-.00937
;WIPE_END
G1 Z1.7 F720
G1 Z1.9
;AFTER_LAYER_CHANGE
;1.9
; printing object Shape-Box id:0 copy 0
G1 Z2.1
G1 X97.736 Y97.736 F9000
G1 Z1.9 F720
G1 E3 F1200
;TYPE:Perimeter
;WIDTH:0.9
G1 F900
G1 X82.264 Y97.736 E2.09483
G1 X82.264 Y82.264 E2.09483
G1 X97.736 Y82.264 E2.09483
G1 X97.736 Y97.616 E2.07859
G1 X98.55 Y98.55 F9000
M204 P800
;TYPE:External perimeter
G1 F900
G1 X81.45 Y98.55 E2.31526
G1 X81.45 Y81.45 E2.31526
M73 P15 R9
G1 X98.55 Y81.45 E2.31526
G1 X98.55 Y98.43 E2.29901
M204 P1000
G1 X97.777 Y98.343 F9000
G1 E-2.1 F2700
;WIPE_START
G1 F7200
G1 X96.024 Y98.448 E-.9
;WIPE_END
G1 Z2.1 F720
G1 X82.956 Y93.973 F9000
G1 Z1.9 F720
G1 E3 F1200
M204 P1500
;TYPE:Internal infill
;WIDTH:0.9
G1 F900
G1 X82.956 Y91.473 E.33849
G1 X83.885 Y91.05 E.13821
G1 X84.759 Y90.782 E.12377
G1 X85.632 Y90.669 E.11919
G1 X86.069 Y90.764 E.06055
G1 X86.506 Y91.142 E.07823
G1 X86.943 Y91.891 E.11741
G1 X87.379 Y92.758 E.1314
G1 X87.816 Y93.522 E.11917
G1 X88.253 Y94.133 E.10171
G1 X88.69 Y94.613 E.08789
G1 X89.126 Y94.993 E.07831
G1 X90 Y95.551 E.1404
G1 X90.874 Y95.938 E.12942
G1 X91.747 Y96.207 E.12368
G1 X92.621 Y96.32 E.11932
G1 X93.057 Y96.224 E.06045
G1 X93.494 Y95.847 E.07814
G1 X93.931 Y95.098 E.11741
G1 X94.368 Y94.23 E.13158
G1 X94.805 Y93.467 E.11905
G1 X95.241 Y92.855 E.10174
G1 X95.678 Y92.375 E.08789
G1 X96.115 Y91.995 E.07841
G1 X97.044 Y91.413 E.14843
G1 X97.044 Y84.484 E.93815
G1 X96.115 Y84.062 E.13815
G1 X95.241 Y83.793 E.12381
G1 X94.368 Y83.68 E.11919
G1 X93.931 Y83.776 E.06058
G1 X93.494 Y84.153 E.07814
G1 X93.057 Y84.902 E.11741
G1 X92.621 Y85.77 E.13152
G1 X92.184 Y86.533 E.11905
G1 X91.747 Y87.145 E.10182
G1 X91.31 Y87.625 E.08789
G1 X90.874 Y88.005 E.07831
G1 X90 Y88.563 E.1404
G1 X89.126 Y88.95 E.12942
G1 X88.253 Y89.218 E.12364
M73 P16 R9
G1 X87.379 Y89.331 E.11932
G1 X86.943 Y89.236 E.06042
G1 X86.506 Y88.858 E.07823
G1 X86.069 Y88.109 E.11741
G1 X85.632 Y87.242 E.13146
G1 X85.195 Y86.478 E.11917
G1 X84.759 Y85.867 E.10163
G1 X84.322 Y85.387 E.08789
G1 X83.885 Y85.007 E.07841
G1 X82.956 Y84.424 E.1485
G1 X82.956 Y82.956 E.19876
G1 X83.988 Y82.956 E.13973
M204 P1000
; stop printing object Shape-Box id:0 copy 0
;LAYER_CHANGE
;Z:2.3
;HEIGHT:0.4
;BEFORE_LAYER_CHANGE
G92 E0.0
;2.3


G1 E-2.1 F2700
;WIPE_START
G1 F7200
G1 X82.956 Y82.956 E-.36765
G1 X82.956 Y84.424 E-.52298
G1 X82.978 Y84.438 E-.00937
;WIPE_END
G1 Z2.1 F720
G1 Z2.3
;AFTER_LAYER_CHANGE
;2.3
; printing object Shape-Box id:0 copy 0
G1 Z2.5
G1 X97.736 Y97.736 F9000
G1 Z2.3 F720
G1 E3 F1200
;TYPE:Perimeter
;WIDTH:0.9
G1 F900
G1 X82.264 Y97.736 E2.09483
G1 X82.264 Y82.264 E2.09483
G1 X97.736 Y82.264 E2.09483
G1 X97.736 Y97.616 E2.07859
G1 X98.55 Y98.55 F9000
M204 P800
;TYPE:External perimeter
G1 F900
G1 X81.45 Y98.55 E2.31526
G1 X81.45 Y81.45 E2.31526
G1 X98.55 Y81.45 E2.31526
M73 P17 R9
G1 X98.55 Y98.43 E2.29901
M204 P1000
G1 X97.777 Y98.343 F9000
G1 E-2.1 F2700
;WIPE_START
G1 F7200
