; generated by PrusaSlicer 2.6.1+win64 on 2023-09-08 at 16:24:00 UTC


;
;

;
;
; 

; external perimeters extrusion width = 0.27mm
; perimeters extrusion width = 0.27mm
; infill extrusion width = 0.27mm
; solid infill extrusion width = 0.27mm
; top infill extrusion width = 0.25mm
; first layer extrusion width = 0.30mm

M73 P0 R8
M201 X2500 Y2500 Z400 E5000 ; sets maximum accelerations, mm/sec^2
M203 X180 Y180 Z12 E80 ; sets maximum feedrates, mm / sec
M204 P2000 R1250 T2500 ; sets acceleration (P, T) and retract acceleration (R), mm/sec^2
M205 X8.00 Y8.00 Z2.00 E10.00 ; sets the jerk limits, mm/sec
M205 S0 T0 ; sets the minimum extruding and travel feed rate, mm/sec
;TYPE:Custom
M862.3 P "MINI" ; printer model check
G90 ; use absolute coordinates
M83 ; extruder relative mode
M104 S170 ; set extruder temp for bed leveling
M140 S90 ; set bed temp
M109 R170 ; wait for bed leveling temp
M190 S90 ; wait for bed temp
M204 T1250 ; set travel acceleration
G28 ; home all without mesh bed level
G29 ; mesh bed leveling 
M204 T2500 ; restore travel acceleration
M104 S240 ; set extruder temp
G92 E0
G1 Y-2 X179 F2400
G1 Z3 F720
M109 S240 ; wait for extruder temp

; intro line
G1 X170 F1000
G1 Z0.2 F720
G1 X110 E8 F600
M73 P1 R8
G1 X40 E10 F400
G92 E0

M221 S95 ; set flow
G21 ; set units to millimeters
G90 ; use absolute coordinates
M83 ; use relative distances for extrusion
M900 K0.2 ; Filament gcode
M107
;LAYER_CHANGE
;Z:0.2
;HEIGHT:0.2
;BEFORE_LAYER_CHANGE
G92 E0.0
;0.2


M73 P2 R8
G1 E-3 F2700
M73 P4 R8
G1 Z.15 F720
G1 Z.2
;AFTER_LAYER_CHANGE
;0.2
G1 Z.35
G1 X78.622 Y79.578 F9000
G1 Z.2 F720
G1 E3 F1500
M204 P600
;TYPE:Skirt/Brim
;WIDTH:0.3
G1 F1200
G1 X79.689 Y78.559 E.03154
G1 X81 Y78.229 E.0289
G1 X99 Y78.229 E.38477
G1 X100.422 Y78.622 E.03154
G1 X101.441 Y79.689 E.03154
G1 X101.771 Y81 E.0289
G1 X101.771 Y99 E.38477
G1 X101.378 Y100.422 E.03154
G1 X100.311 Y101.441 E.03154
G1 X99 Y101.771 E.0289
G1 X81 Y101.771 E.38477
G1 X79.578 Y101.378 E.03154
G1 X78.559 Y100.311 E.03154
G1 X78.229 Y99 E.0289
G1 X78.229 Y81 E.38477
G1 X78.612 Y79.614 E.03074
M204 P1000
M73 P5 R8
G1 X78.867 Y79.688 F9000
M204 P600
G1 F1200
G1 X78.878 Y79.652 E.0008
G1 X79.932 Y78.724 E.03002
G1 X81 Y78.486 E.02339
G1 X99 Y78.486 E.38477
G1 X100.348 Y78.878 E.03001
G1 X101.276 Y79.932 E.03002
G1 X101.514 Y81 E.02339
G1 X101.514 Y99 E.38477
G1 X101.122 Y100.348 E.03001
G1 X100.068 Y101.276 E.03002
G1 X99 Y101.514 E.02339
G1 X81 Y101.514 E.38477
G1 X79.652 Y101.122 E.03001
G1 X78.724 Y100.068 E.03002
G1 X78.486 Y99 E.02339
G1 X78.486 Y81 E.38477
G1 X78.857 Y79.724 E.02841
M204 P1000
G1 X79.112 Y79.803 F9000
M204 P600
G1 F1200
G1 X79.134 Y79.73 E.00163
G1 X80.172 Y78.9 E.02841
G1 X81 Y78.743 E.01801
G1 X99 Y78.743 E.38477
G1 X100.27 Y79.134 E.02841
M73 P6 R8
G1 X101.1 Y80.172 E.02841
G1 X101.257 Y81 E.01801
G1 X101.257 Y99 E.38477
G1 X100.866 Y100.27 E.02841
G1 X99.828 Y101.1 E.02841
G1 X99 Y101.257 E.01801
G1 X81 Y101.257 E.38477
G1 X79.73 Y100.866 E.02841
G1 X78.9 Y99.828 E.02841
G1 X78.743 Y99 E.01801
G1 X78.743 Y81 E.38477
G1 X79.101 Y79.839 E.02597
M204 P1000
; printing object Shape-Box id:0 copy 0
G1 E-2.1 F2700
;WIPE_START
G1 F7200
G1 X79.134 Y79.73 E-.04057
G1 X80.172 Y78.9 E-.47347
G1 X81 Y78.743 E-.30023
G1 X81.241 Y78.743 E-.08573
;WIPE_END
G1 Z.35 F720
G1 X98.85 Y98.85 F9000
G1 Z.2 F720
G1 E3 F1500
M204 P600
;TYPE:External perimeter
;WIDTH:0.299999
G1 F1200
G1 X81.15 Y98.85 E.37836
G1 X81.15 Y81.15 E.37836
M73 P7 R8
G1 X98.85 Y81.15 E.37836
G1 X98.85 Y98.813 E.37757
M204 P1000
; stop printing object Shape-Box id:0 copy 0
;LAYER_CHANGE
;Z:0.35
;HEIGHT:0.15
;BEFORE_LAYER_CHANGE
G92 E0.0
;0.35


G1 E-2.1 F2700
;WIPE_START
G1 F7200
G1 X96.324 Y98.818 E-.9
;WIPE_END
G1 Z.35 F720
;AFTER_LAYER_CHANGE
;0.35
G1 Z.5
G1 X96.324 Y101.771 F9000
G1 Z.35 F720
G1 E3 F1500
;TYPE:Skirt/Brim
;WIDTH:0.3
G1 F2400
G1 X81 Y101.771 E.25593
G1 X79.578 Y101.378 E.02464
G1 X78.559 Y100.311 E.02464
G1 X78.229 Y99 E.02258
G1 X78.229 Y81 E.30062
G1 X78.622 Y79.578 E.02464
G1 X79.689 Y78.559 E.02464
G1 X81 Y78.229 E.02258
G1 X99 Y78.229 E.30062
G1 X100.422 Y78.622 E.02464
G1 X101.441 Y79.689 E.02464
G1 X101.771 Y81 E.02258
G1 X101.771 Y99 E.30062
G1 X101.378 Y100.422 E.02464
G1 X100.311 Y101.441 E.02464
M73 P8 R8
G1 X99 Y101.771 E.02258
G1 X96.361 Y101.771 E.04407
G1 X96.361 Y101.514 F9000
G1 F2400
G1 X81 Y101.514 E.25655
G1 X79.652 Y101.122 E.02345
G1 X78.724 Y100.068 E.02345
G1 X78.486 Y99 E.01827
G1 X78.486 Y81 E.30062
G1 X78.878 Y79.652 E.02345
G1 X79.932 Y78.724 E.02345
G1 X81 Y78.486 E.01827
G1 X99 Y78.486 E.30062
G1 X100.348 Y78.878 E.02345
G1 X101.276 Y79.932 E.02345
G1 X101.514 Y81 E.01827
G1 X101.514 Y99 E.30062
G1 X101.122 Y100.348 E.02345
G1 X100.068 Y101.276 E.02345
G1 X99 Y101.514 E.01827
G1 X96.399 Y101.514 E.04344
G1 X96.399 Y101.257 F9000
G1 F2400
G1 X81 Y101.257 E.25718
G1 X79.73 Y100.866 E.02219
G1 X78.9 Y99.828 E.0222
G1 X78.743 Y99 E.01408
G1 X78.743 Y81 E.30062
G1 X79.134 Y79.73 E.02219
G1 X80.172 Y78.9 E.0222
G1 X81 Y78.743 E.01408
G1 X99 Y78.743 E.30062
G1 X100.27 Y79.134 E.02219
G1 X101.1 Y80.172 E.0222
G1 X101.257 Y81 E.01408
G1 X101.257 Y99 E.30062
G1 X100.866 Y100.27 E.02219
G1 X99.828 Y101.1 E.0222
G1 X99 Y101.257 E.01408
G1 X96.436 Y101.257 E.04282
; printing object Shape-Box id:0 copy 0
G1 E-2.1 F2700
;WIPE_START
G1 F7200
G1 X93.91 Y101.257 E-.9
;WIPE_END
G1 Z.5 F720
G1 X98.865 Y98.865 F9000
G1 Z.35 F720
G1 E3 F1500
M204 P500
;TYPE:External perimeter
;WIDTH:0.269999
G1 F1200
G1 X81.135 Y98.865 E.26294
G1 X81.135 Y81.135 E.26294
M73 P9 R8
G1 X98.865 Y81.135 E.26294
G1 X98.865 Y98.828 E.26239
M204 P1000
; stop printing object Shape-Box id:0 copy 0
;LAYER_CHANGE
;Z:0.5
;HEIGHT:0.15
;BEFORE_LAYER_CHANGE
G92 E0.0
;0.5


G1 E-2.1 F2700
;WIPE_START
G1 F7200
G1 X96.339 Y98.833 E-.9
;WIPE_END
G1 Z.5 F720
;AFTER_LAYER_CHANGE
;0.5
G1 Z.65
G1 X96.339 Y101.771 F9000
G1 Z.5 F720
G1 E3 F1500
;TYPE:Skirt/Brim
;WIDTH:0.3
G1 F2400
G1 X81 Y101.771 E.25618
G1 X79.578 Y101.378 E.02464
G1 X78.559 Y100.311 E.02464
G1 X78.229 Y99 E.02258
G1 X78.229 Y81 E.30062
G1 X78.622 Y79.578 E.02464
G1 X79.689 Y78.559 E.02464
G1 X81 Y78.229 E.02258
G1 X99 Y78.229 E.30062
G1 X100.422 Y78.622 E.02464
M73 P10 R8
G1 X101.441 Y79.689 E.02464
G1 X101.771 Y81 E.02258
G1 X101.771 Y99 E.30062
G1 X101.378 Y100.422 E.02464
G1 X100.311 Y101.441 E.02464
G1 X99 Y101.771 E.02258
G1 X96.376 Y101.771 E.04382
G1 X96.376 Y101.514 F9000
G1 F2400
G1 X81 Y101.514 E.2568
G1 X79.652 Y101.122 E.02345
G1 X78.724 Y100.068 E.02345
G1 X78.486 Y99 E.01827
G1 X78.486 Y81 E.30062
G1 X78.878 Y79.652 E.02345
G1 X79.932 Y78.724 E.02345
G1 X81 Y78.486 E.01827
G1 X99 Y78.486 E.30062
G1 X100.348 Y78.878 E.02345
G1 X101.276 Y79.932 E.02345
G1 X101.514 Y81 E.01827
G1 X101.514 Y99 E.30062
G1 X101.122 Y100.348 E.02345
G1 X100.068 Y101.276 E.02345
G1 X99 Y101.514 E.01827
G1 X96.414 Y101.514 E.04319
G1 X96.414 Y101.257 F9000
G1 F2400
G1 X81 Y101.257 E.25743
G1 X79.73 Y100.866 E.02219
M73 P10 R7
G1 X78.9 Y99.828 E.0222
G1 X78.743 Y99 E.01408
G1 X78.743 Y81 E.30062
G1 X79.134 Y79.73 E.02219
G1 X80.172 Y78.9 E.0222
G1 X81 Y78.743 E.01408
G1 X99 Y78.743 E.30062
G1 X100.27 Y79.134 E.02219
G1 X101.1 Y80.172 E.0222
G1 X101.257 Y81 E.01408
G1 X101.257 Y99 E.30062
G1 X100.866 Y100.27 E.02219
M73 P11 R7
G1 X99.828 Y101.1 E.0222
G1 X99 Y101.257 E.01408
G1 X96.451 Y101.257 E.04257
; printing object Shape-Box id:0 copy 0
G1 E-2.1 F2700
;WIPE_START
G1 F7200
G1 X93.925 Y101.257 E-.9
;WIPE_END
G1 Z.65 F720
G1 X98.865 Y98.865 F9000
G1 Z.5 F720
G1 E3 F1500
M204 P500
;TYPE:External perimeter
;WIDTH:0.269999
G1 F1200
G1 X81.135 Y98.865 E.26294
G1 X81.135 Y81.135 E.26294
G1 X98.865 Y81.135 E.26294
G1 X98.865 Y98.828 E.26239
M204 P1000
; stop printing object Shape-Box id:0 copy 0
;LAYER_CHANGE
;Z:0.65
;HEIGHT:0.15
;BEFORE_LAYER_CHANGE
G92 E0.0
;0.65


G1 E-2.1 F2700
;WIPE_START
G1 F7200
G1 X96.339 Y98.833 E-.9
;WIPE_END
G1 Z.65 F720
;AFTER_LAYER_CHANGE
;0.65
; printing object Shape-Box id:0 copy 0
G1 Z.8
G1 X98.865 Y98.865 F9000
G1 Z.65 F720
G1 E3 F1500
M204 P500
G1 F1200
G1 X81.135 Y98.865 E.26294
G1 X81.135 Y81.135 E.26294
M73 P12 R7
G1 X98.865 Y81.135 E.26294
G1 X98.865 Y98.828 E.26239
M204 P1000
; stop printing object Shape-Box id:0 copy 0
;LAYER_CHANGE
;Z:0.8
;HEIGHT:0.15
;BEFORE_LAYER_CHANGE
G92 E0.0
;0.8


G1 E-2.1 F2700
;WIPE_START
G1 F7200
G1 X96.339 Y98.833 E-.9
;WIPE_END
G1 Z.8 F720
;AFTER_LAYER_CHANGE
;0.8
; printing object Shape-Box id:0 copy 0
G1 Z.95
G1 X98.865 Y98.865 F9000
G1 Z.8 F720
G1 E3 F1500
M204 P500
G1 F1200
G1 X81.135 Y98.865 E.26294
G1 X81.135 Y81.135 E.26294
G1 X98.865 Y81.135 E.26294
G1 X98.865 Y98.828 E.26239
M204 P1000
; stop printing object Shape-Box id:0 copy 0
;LAYER_CHANGE
;Z:0.95
;HEIGHT:0.15
;BEFORE_LAYER_CHANGE
G92 E0.0
;0.95


M73 P13 R7
G1 E-2.1 F2700
;WIPE_START
G1 F7200
G1 X96.339 Y98.833 E-.9
;WIPE_END
G1 Z.95 F720
;AFTER_LAYER_CHANGE
;0.95
; printing object Shape-Box id:0 copy 0
G1 Z1.1
G1 X98.865 Y98.865 F9000
G1 Z.95 F720
G1 E3 F1500
M204 P500
G1 F1200
G1 X81.135 Y98.865 E.26294
G1 X81.135 Y81.135 E.26294
G1 X98.865 Y81.135 E.26294
G1 X98.865 Y98.828 E.26239
M204 P1000
; stop printing object Shape-Box id:0 copy 0
;LAYER_CHANGE
;Z:1.1
;HEIGHT:0.15
;BEFORE_LAYER_CHANGE
G92 E0.0
;1.1


G1 E-2.1 F2700
;WIPE_START
M73 P14 R7
G1 F7200
G1 X96.339 Y98.833 E-.9
;WIPE_END
G1 Z1.1 F720
;AFTER_LAYER_CHANGE
;1.1
; printing object Shape-Box id:0 copy 0
G1 Z1.25
G1 X98.865 Y98.865 F9000
G1 Z1.1 F720
G1 E3 F1500
M204 P500
G1 F1200
G1 X81.135 Y98.865 E.26294
G1 X81.135 Y81.135 E.26294
G1 X98.865 Y81.135 E.26294
G1 X98.865 Y98.828 E.26239
M204 P1000
; stop printing object Shape-Box id:0 copy 0
;LAYER_CHANGE
;Z:1.25
;HEIGHT:0.15
;BEFORE_LAYER_CHANGE
G92 E0.0
;1.25


G1 E-2.1 F2700
;WIPE_START
G1 F7200
G1 X96.339 Y98.833 E-.9
;WIPE_END
G1 Z1.25 F720
;AFTER_LAYER_CHANGE
;1.25
; printing object Shape-Box id:0 copy 0
G1 Z1.4
G1 X98.865 Y98.865 F9000
G1 Z1.25 F720
G1 E3 F1500
M204 P500
G1 F1200
G1 X81.135 Y98.865 E.26294
G1 X81.135 Y81.135 E.26294
M73 P15 R7
G1 X98.865 Y81.135 E.26294
G1 X98.865 Y98.828 E.26239
M204 P1000
; stop printing object Shape-Box id:0 copy 0
;LAYER_CHANGE
;Z:1.4
;HEIGHT:0.15
;BEFORE_LAYER_CHANGE
G92 E0.0
;1.4


G1 E-2.1 F2700
;WIPE_START
G1 F7200
G1 X96.339 Y98.833 E-.9
;WIPE_END
G1 Z1.4 F720
;AFTER_LAYER_CHANGE
;1.4
; printing object Shape-Box id:0 copy 0
G1 Z1.55
G1 X98.865 Y98.865 F9000
G1 Z1.4 F720
G1 E3 F1500
M204 P500
G1 F1200
G1 X81.135 Y98.865 E.26294
G1 X81.135 Y81.135 E.26294
G1 X98.865 Y81.135 E.26294
G1 X98.865 Y98.828 E.26239
M204 P1000
; stop printing object Shape-Box id:0 copy 0
;LAYER_CHANGE
;Z:1.55
;HEIGHT:0.15
;BEFORE_LAYER_CHANGE
G92 E0.0
;1.55


M73 P16 R7
G1 E-2.1 F2700
;WIPE_START
G1 F7200
G1 X96.339 Y98.833 E-.9
;WIPE_END
G1 Z1.55 F720
;AFTER_LAYER_CHANGE
;1.55
; printing object Shape-Box id:0 copy 0
G1 Z1.7
G1 X98.865 Y98.865 F9000
G1 Z1.55 F720
G1 E3 F1500
M204 P500
G1 F1200
G1 X81.135 Y98.865 E.26294
G1 X81.135 Y81.135 E.26294
G1 X98.865 Y81.135 E.26294
G1 X98.865 Y98.828 E.26239
M204 P1000
; stop printing object Shape-Box id:0 copy 0
;LAYER_CHANGE
;Z:1.7
;HEIGHT:0.15
;BEFORE_LAYER_CHANGE
G92 E0.0
;1.7


G1 E-2.1 F2700
;WIPE_START
M73 P17 R7
G1 F7200
G1 X96.339 Y98.833 E-.9
;WIPE_END
G1 Z1.7 F720
;AFTER_LAYER_CHANGE
;1.7
; printing object Shape-Box id:0 copy 0
G1 Z1.85
G1 X98.865 Y98.865 F9000
G1 Z1.7 F720
G1 E3 F1500
M204 P500
G1 F1200
G1 X81.135 Y98.865 E.26294
G1 X81.135 Y81.135 E.26294
G1 X98.865 Y81.135 E.26294
G1 X98.865 Y98.828 E.26239
M204 P1000
; stop printing object Shape-Box id:0 copy 0
;LAYER_CHANGE
;Z:1.85
;HEIGHT:0.15
;BEFORE_LAYER_CHANGE
G92 E0.0
;1.85


G1 E-2.1 F2700
;WIPE_START
G1 F7200
G1 X96.339 Y98.833 E-.9
;WIPE_END
G1 Z1.85 F720
;AFTER_LAYER_CHANGE
;1.85
; printing object Shape-Box id:0 copy 0
G1 Z2
G1 X98.865 Y98.865 F9000
G1 Z1.85 F720
G1 E3 F1500
M204 P500
G1 F1200
G1 X81.135 Y98.865 E.26294
G1 X81.135 Y81.135 E.26294
M73 P18 R7
G1 X98.865 Y81.135 E.26294
G1 X98.865 Y98.828 E.26239
M204 P1000
; stop printing object Shape-Box id:0 copy 0
;LAYER_CHANGE
;Z:2
;HEIGHT:0.15
;BEFORE_LAYER_CHANGE
G92 E0.0
;2


G1 E-2.1 F2700
;WIPE_START
G1 F7200
G1 X96.339 Y98.833 E-.9
;WIPE_END
G1 Z2 F720
;AFTER_LAYER_CHANGE
;2
; printing object Shape-Box id:0 copy 0
G1 Z2.15
G1 X98.865 Y98.865 F9000
G1 Z2 F720
G1 E3 F1500
M204 P500
G1 F1200
G1 X81.135 Y98.865 E.26294
G1 X81.135 Y81.135 E.26294
G1 X98.865 Y81.135 E.26294
G1 X98.865 Y98.828 E.26239
M204 P1000
; stop printing object Shape-Box id:0 copy 0
;LAYER_CHANGE
;Z:2.15
;HEIGHT:0.15
;BEFORE_LAYER_CHANGE
G92 E0.0
;2.15


M73 P19 R7
G1 E-2.1 F2700
;WIPE_START
G1 F7200
G1 X96.339 Y98.833 E-.9
;WIPE_END
G1 Z2.15 F720
;AFTER_LAYER_CHANGE
;2.15
; printing object Shape-Box id:0 copy 0
G1 Z2.3
G1 X98.865 Y98.865 F9000
G1 Z2.15 F720
G1 E3 F1500
M204 P500
G1 F1200
G1 X81.135 Y98.865 E.26294
G1 X81.135 Y81.135 E.26294
G1 X98.865 Y81.135 E.26294
G1 X98.865 Y98.828 E.26239
M204 P1000
; stop printing object Shape-Box id:0 copy 0
;LAYER_CHANGE
;Z:2.3
;HEIGHT:0.15
;BEFORE_LAYER_CHANGE
G92 E0.0
;2.3


G1 E-2.1 F2700
;WIPE_START
M73 P20 R7
G1 F7200
G1 X96.339 Y98.833 E-.9
;WIPE_END
G1 Z2.3 F720
;AFTER_LAYER_CHANGE
;2.3
; printing object Shape-Box id:0 copy 0
G1 Z2.45
G1 X98.865 Y98.865 F9000
G1 Z2.3 F720
G1 E3 F1500
M204 P500
G1 F1200
G1 X81.135 Y98.865 E.26294
G1 X81.135 Y81.135 E.26294
G1 X98.865 Y81.135 E.26294
G1 X98.865 Y98.828 E.26239
M204 P1000
; stop printing object Shape-Box id:0 copy 0
;LAYER_CHANGE
;Z:2.45
;HEIGHT:0.15
;BEFORE_LAYER_CHANGE
G92 E0.0
;2.45


G1 E-2.1 F2700
;WIPE_START
G1 F7200
G1 X96.339 Y98.833 E-.9
;WIPE_END
G1 Z2.45 F720
;AFTER_LAYER_CHANGE
;2.45
; printing object Shape-Box id:0 copy 0
G1 Z2.6
G1 X98.865 Y98.865 F9000
G1 Z2.45 F720
G1 E3 F1500
M204 P500
G1 F1200
G1 X81.135 Y98.865 E.26294
G1 X81.135 Y81.135 E.26294
G1 X98.865 Y81.135 E.26294
M73 P21 R7
G1 X98.865 Y98.828 E.26239
M204 P1000
; stop printing object Shape-Box id:0 copy 0
;LAYER_CHANGE
;Z:2.6
;HEIGHT:0.15
;BEFORE_LAYER_CHANGE
G92 E0.0
;2.6


G1 E-2.1 F2700
;WIPE_START
G1 F7200
G1 X96.339 Y98.833 E-.9
;WIPE_END
G1 Z2.6 F720
;AFTER_LAYER_CHANGE
;2.6
; printing object Shape-Box id:0 copy 0
G1 Z2.75
G1 X98.865 Y98.865 F9000
G1 Z2.6 F720
G1 E3 F1500
M204 P500
G1 F1200
G1 X81.135 Y98.865 E.26294
G1 X81.135 Y81.135 E.26294
G1 X98.865 Y81.135 E.26294
M73 P21 R6
G1 X98.865 Y98.828 E.26239
M204 P1000
; stop printing object Shape-Box id:0 copy 0
;LAYER_CHANGE
;Z:2.75
;HEIGHT:0.15
;BEFORE_LAYER_CHANGE
G92 E0.0
;2.75


M73 P22 R6
G1 E-2.1 F2700
;WIPE_START
G1 F7200
G1 X96.339 Y98.833 E-.9
;WIPE_END
G1 Z2.75 F720
;AFTER_LAYER_CHANGE
;2.75
; printing object Shape-Box id:0 copy 0
G1 Z2.9
G1 X98.865 Y98.865 F9000
G1 Z2.75 F720
G1 E3 F1500
M204 P500
G1 F1200
G1 X81.135 Y98.865 E.26294
G1 X81.135 Y81.135 E.26294
G1 X98.865 Y81.135 E.26294
G1 X98.865 Y98.828 E.26239
M204 P1000
; stop printing object Shape-Box id:0 copy 0
;LAYER_CHANGE
;Z:2.9
;HEIGHT:0.15
;BEFORE_LAYER_CHANGE
G92 E0.0
;2.9


G1 E-2.1 F2700
;WIPE_START
G1 F7200
M73 P23 R6
G1 X96.339 Y98.833 E-.9
;WIPE_END
G1 Z2.9 F720
;AFTER_LAYER_CHANGE
;2.9
; printing object Shape-Box id:0 copy 0
G1 Z3.05
G1 X98.865 Y98.865 F9000
G1 Z2.9 F720
G1 E3 F1500
M204 P500
G1 F1200
G1 X81.135 Y98.865 E.26294
G1 X81.135 Y81.135 E.26294
G1 X98.865 Y81.135 E.26294
G1 X98.865 Y98.828 E.26239
M204 P1000
; stop printing object Shape-Box id:0 copy 0
;LAYER_CHANGE
;Z:3.05
;HEIGHT:0.15
;BEFORE_LAYER_CHANGE
G92 E0.0
;3.05


G1 E-2.1 F2700
;WIPE_START
G1 F7200
G1 X96.339 Y98.833 E-.9
;WIPE_END
G1 Z3.05 F720
;AFTER_LAYER_CHANGE
;3.05
; printing object Shape-Box id:0 copy 0
G1 Z3.2
G1 X98.865 Y98.865 F9000
G1 Z3.05 F720
G1 E3 F1500
M204 P500
G1 F1200
G1 X81.135 Y98.865 E.26294
G1 X81.135 Y81.135 E.26294
G1 X98.865 Y81.135 E.26294
M73 P24 R6
G1 X98.865 Y98.828 E.26239
M204 P1000
; stop printing object Shape-Box id:0 copy 0
;LAYER_CHANGE
;Z:3.2
;HEIGHT:0.15
;BEFORE_LAYER_CHANGE
G92 E0.0
;3.2


G1 E-2.1 F2700
;WIPE_START
G1 F7200
G1 X96.339 Y98.833 E-.9
;WIPE_END
G1 Z3.2 F720
;AFTER_LAYER_CHANGE
;3.2
; printing object Shape-Box id:0 copy 0
G1 Z3.35
G1 X98.865 Y98.865 F9000
G1 Z3.2 F720
G1 E3 F1500
M204 P500
G1 F1200
